public/cube/Linny.cube
TITLE "Generated by Resolve"
LUT_3D_SIZE 9
0.000000 0.000000 0.000000
0.035294 0.000000 0.000000
0.066667 0.000000 0.000000
0.078431 0.000000 0.000000
0.074510 0.000000 0.000000
0.062745 0.000000 0.000000
0.054902 0.000000 0.000000
0.058824 0.000000 0.000000
0.074510 0.000000 0.000000
0.000000 0.062745 0.000000
0.070588 0.070588 0.000000
0.141176 0.000000 0.000000
0.172549 0.000000 0.000000
0.184314 0.000000 0.000000
0.188235 0.000000 0.000000
0.188235 0.000000 0.000000
0.196078 0.000000 0.000000
0.211765 0.000000 0.000000
0.000000 0.160784 0.000000
0.035294 0.215686 0.000000
0.196078 0.196078 0.000000
0.286275 0.121569 0.000000
0.305882 0.047059 0.000000
0.305882 0.000000 0.000000
0.317647 0.000000 0.000000
0.329412 0.000000 0.000000
0.349020 0.000000 0.000000
0.000000 0.274510 0.000000
0.015686 0.352941 0.000000
0.192157 0.380392 0.000000
0.345098 0.345098 0.000000
0.435294 0.282353 0.000000
0.478431 0.227451 0.000000
0.498039 0.184314 0.000000
0.517647 0.164706 0.000000
0.556863 0.160784 0.000000
0.000000 0.396078 0.000000
0.039216 0.486275 0.000000
0.207843 0.529412 0.000000
0.364706 0.517647 0.000000
0.482353 0.482353 0.000000
0.560784 0.439216 0.000000
0.623529 0.403922 0.000000
0.670588 0.380392 0.000000
0.717647 0.376471 0.000000
0.000000 0.537255 0.000000
0.086275 0.611765 0.019608
0.239216 0.650980 0.027451
0.388235 0.654902 0.027451
0.509804 0.631373 0.027451
0.603922 0.600000 0.003922
0.670588 0.572549 0.000000
0.725490 0.552941 0.000000
0.768628 0.545098 0.000000
0.000000 0.682353 0.007843
0.101961 0.733333 0.039216
0.266667 0.760784 0.066667
0.415686 0.764706 0.074510
0.537255 0.752941 0.062745
0.631373 0.725490 0.039216
0.701961 0.701961 0.015686
0.760784 0.682353 0.000000
0.800000 0.674510 0.000000
0.007843 0.803922 0.035294
0.133333 0.835294 0.070588
0.294118 0.858824 0.098039
0.443137 0.862745 0.105882
0.564706 0.847059 0.098039
0.658824 0.823529 0.074510
0.729412 0.800000 0.050980
0.784314 0.780392 0.031373
0.819608 0.768628 0.023529
0.050980 0.894118 0.078431
0.172549 0.921569 0.109804
0.325490 0.937255 0.137255
0.474510 0.933333 0.145098
0.592157 0.917647 0.133333
0.686275 0.894118 0.109804
0.752941 0.870588 0.086275
0.803922 0.847059 0.062745
0.839216 0.835294 0.050980
0.000000 0.000000 0.015686
0.015686 0.000000 0.011765
0.070588 0.000000 0.000000
0.090196 0.000000 0.000000
0.090196 0.000000 0.000000
0.082353 0.000000 0.000000
0.074510 0.000000 0.000000
0.078431 0.000000 0.000000
0.098039 0.000000 0.000000
0.000000 0.043137 0.043137
0.109804 0.109804 0.109804
0.188235 0.011765 0.015686
0.203922 0.000000 0.000000
0.215686 0.000000 0.000000
0.219608 0.000000 0.000000
0.219608 0.000000 0.000000
0.223529 0.000000 0.000000
0.243137 0.000000 0.000000
0.000000 0.172549 0.011765
0.031373 0.247059 0.039216
0.243137 0.239216 0.019608
0.360784 0.152941 0.000000
0.388235 0.074510 0.000000
0.384314 0.015686 0.000000
0.376471 0.000000 0.000000
0.380392 0.000000 0.000000
0.403922 0.000000 0.000000
0.000000 0.301961 0.000000
0.000000 0.384314 0.011765
0.200000 0.419608 0.011765
0.384314 0.380392 0.000000
0.490196 0.317647 0.000000
0.545098 0.258824 0.000000
0.576471 0.215686 0.000000
0.600000 0.192157 0.000000
0.639216 0.188235 0.000000
0.000000 0.431373 0.011765
0.027451 0.509804 0.043137
0.200000 0.556863 0.047059
0.376471 0.549020 0.043137
0.513726 0.509804 0.039216
0.600000 0.462745 0.027451
0.654902 0.427451 0.023529
0.698039 0.403922 0.011765
0.741176 0.400000 0.007843
0.000000 0.556863 0.058824
0.070588 0.623529 0.090196
0.231373 0.670588 0.101961
0.392157 0.678431 0.101961
0.529412 0.658824 0.094118
0.627451 0.623529 0.086275
0.694118 0.596078 0.086275
0.745098 0.572549 0.066667
0.788235 0.568627 0.062745
0.000000 0.690196 0.082353
0.101961 0.733333 0.125490
0.274510 0.768628 0.160784
0.419608 0.784314 0.156863
0.549020 0.772549 0.149020
0.650980 0.745098 0.149020
0.721569 0.717647 0.129412
0.776471 0.701961 0.109804
0.815686 0.694118 0.105882
0.000000 0.796079 0.113725
0.129412 0.835294 0.152941
0.298039 0.858824 0.192157
0.454902 0.866667 0.207843
0.580392 0.858824 0.207843
0.674510 0.835294 0.188235
0.745098 0.811765 0.164706
0.796079 0.796079 0.145098
0.835294 0.784314 0.137255
0.043137 0.882353 0.156863
0.168627 0.913726 0.192157
0.329412 0.933333 0.227451
0.482353 0.933333 0.247059
0.603922 0.913726 0.247059
0.694118 0.890196 0.231373
0.760784 0.870588 0.203922
0.811765 0.850980 0.184314
0.843137 0.843137 0.172549
0.000000 0.000000 0.011765
0.000000 0.000000 0.035294
0.015686 0.000000 0.007843
0.070588 0.000000 0.000000
0.090196 0.000000 0.000000
0.090196 0.000000 0.000000
0.090196 0.000000 0.000000
0.094118 0.000000 0.000000
0.109804 0.000000 0.000000
0.000000 0.000000 0.074510
0.000000 0.000000 0.137255
0.149020 0.000000 0.145098
0.215686 0.000000 0.054902
0.231373 0.000000 0.000000
0.239216 0.000000 0.000000
0.243137 0.000000 0.000000
0.254902 0.000000 0.000000
0.270588 0.000000 0.000000
0.000000 0.109804 0.109804
0.000000 0.196078 0.192157
0.270588 0.270588 0.270588
0.407843 0.156863 0.160784
0.458824 0.074510 0.078431
0.466667 0.015686 0.023529
0.458824 0.000000 0.000000
0.466667 0.000000 0.000000
0.490196 0.000000 0.000000
0.000000 0.274510 0.101961
0.000000 0.368627 0.156863
0.184314 0.435294 0.192157
0.415686 0.415686 0.176471
0.545098 0.337255 0.133333
0.603922 0.274510 0.098039
0.631373 0.227451 0.078431
0.658824 0.203922 0.062745
0.678431 0.200000 0.066667
0.000000 0.415686 0.117647
0.000000 0.498039 0.160784
0.168627 0.568627 0.180392
0.380392 0.584314 0.180392
0.549020 0.545098 0.164706
0.647059 0.494118 0.149020
0.701961 0.450980 0.145098
0.741176 0.423529 0.137255
0.772549 0.415686 0.145098
0.000000 0.545098 0.152941
0.027451 0.615686 0.192157
0.200000 0.678431 0.215686
0.380392 0.705882 0.211765
0.541176 0.694118 0.203922
0.658824 0.658824 0.200000
0.733333 0.623529 0.200000
0.784314 0.600000 0.196078
0.815686 0.592157 0.200000
0.000000 0.662745 0.180392
0.082353 0.713726 0.235294
0.239216 0.772549 0.258824
0.403922 0.800000 0.262745
0.549020 0.792157 0.258824
0.662745 0.764706 0.250980
0.741176 0.741176 0.247059
0.796079 0.717647 0.243137
0.831373 0.709804 0.247059
0.000000 0.768628 0.215686
0.113725 0.811765 0.262745
0.290196 0.850980 0.309804
0.435294 0.870588 0.309804
0.564706 0.850980 0.305882
0.662745 0.827451 0.298039
0.737255 0.803922 0.294118
0.788235 0.784314 0.290196
0.819608 0.776471 0.290196
0.015686 0.854902 0.258824
0.152941 0.886275 0.301961
0.329412 0.909804 0.349020
0.466667 0.901961 0.352941
0.576471 0.874510 0.349020
0.662745 0.847059 0.341176
0.729412 0.827451 0.333333
0.776471 0.811765 0.325490
0.807843 0.803922 0.325490
0.000000 0.000000 0.000000
0.000000 0.000000 0.019608
0.000000 0.000000 0.027451
0.000000 0.000000 0.000000
0.043137 0.000000 0.000000
0.062745 0.000000 0.000000
0.074510 0.000000 0.000000
0.086275 0.000000 0.000000
0.105882 0.000000 0.000000
0.000000 0.000000 0.062745
0.000000 0.000000 0.121569
0.023529 0.000000 0.160784
0.141176 0.000000 0.133333
0.200000 0.000000 0.066667
0.227451 0.000000 0.007843
0.243137 0.000000 0.000000
0.254902 0.000000 0.000000
0.274510 0.000000 0.000000
0.000000 0.003922 0.129412
0.000000 0.066667 0.243137
0.113725 0.113725 0.349020
0.341176 0.094118 0.333333
0.447059 0.031373 0.239216
0.482353 0.000000 0.156863
0.490196 0.000000 0.105882
0.505882 0.000000 0.078431
0.529412 0.000000 0.074510
0.000000 0.184314 0.180392
0.000000 0.274510 0.270588
0.117647 0.368627 0.368627
0.447059 0.447059 0.447059
0.576471 0.341176 0.341176
0.643137 0.262745 0.270588
0.670588 0.219608 0.223529
0.686275 0.196078 0.200000
0.709804 0.188235 0.196078
0.000000 0.349020 0.203922
0.000000 0.439216 0.270588
0.117647 0.537255 0.337255
0.364706 0.600000 0.372549
0.580392 0.576471 0.364706
0.698039 0.513726 0.321569
0.756863 0.462745 0.290196
0.792157 0.431373 0.278431
0.815686 0.423529 0.278431
0.000000 0.490196 0.235294
0.000000 0.568627 0.290196
0.149020 0.654902 0.341176
0.352941 0.713726 0.364706
0.545098 0.705882 0.376471
0.674510 0.674510 0.364706
0.756863 0.639216 0.345098
0.811765 0.611765 0.333333
0.843137 0.603922 0.337255
0.000000 0.615686 0.270588
0.035294 0.674510 0.325490
0.196078 0.752941 0.368627
0.372549 0.792157 0.388235
0.545098 0.772549 0.411765
0.654902 0.749020 0.419608
0.729412 0.729412 0.407843
0.780392 0.709804 0.396078
0.811765 0.701961 0.396078
0.000000 0.721569 0.305882
0.074510 0.768628 0.360784
0.243137 0.827451 0.403922
0.407843 0.835294 0.423529
0.560784 0.811765 0.454902
0.662745 0.796079 0.470588
0.725490 0.780392 0.466667
0.768628 0.764706 0.454902
0.792157 0.756863 0.450980
0.000000 0.807843 0.349020
0.117647 0.847059 0.400000
0.294118 0.874510 0.443137
0.450980 0.854902 0.462745
0.588235 0.835294 0.501961
0.678431 0.827451 0.513726
0.733333 0.815686 0.509804
0.772549 0.803922 0.498039
0.796079 0.792157 0.490196
0.000000 0.000000 0.000000
0.000000 0.000000 0.000000
0.000000 0.000000 0.007843
0.000000 0.000000 0.000000
0.000000 0.000000 0.000000
0.007843 0.000000 0.000000
0.031373 0.000000 0.000000
0.050980 0.000000 0.000000
0.078431 0.000000 0.000000
0.000000 0.000000 0.027451
0.000000 0.000000 0.090196
0.000000 0.000000 0.145098
0.039216 0.000000 0.149020
0.129412 0.000000 0.113725
0.176471 0.000000 0.066667
0.207843 0.000000 0.031373
0.231373 0.000000 0.007843
0.254902 0.000000 0.007843
0.000000 0.000000 0.121569
0.000000 0.000000 0.207843
0.000000 0.000000 0.333333
0.196078 0.000000 0.384314
0.349020 0.000000 0.337255
0.423529 0.000000 0.262745
0.454902 0.000000 0.203922
0.482353 0.000000 0.172549
0.513726 0.000000 0.164706
0.000000 0.078431 0.196078
0.000000 0.156863 0.309804
0.019608 0.239216 0.435294
0.294118 0.294118 0.525490
0.517647 0.278431 0.509804
0.619608 0.223529 0.427451
0.662745 0.184314 0.364706
0.686275 0.164706 0.329412
0.709804 0.160784 0.317647
0.000000 0.254902 0.250980
0.000000 0.345098 0.337255
0.047059 0.447059 0.443137
0.309804 0.537255 0.537255
0.611765 0.611765 0.611765
0.701961 0.525490 0.529412
0.772549 0.462745 0.466667
0.815686 0.427451 0.431373
0.839216 0.415686 0.423529
0.000000 0.411765 0.294118
0.000000 0.494118 0.364706
0.090196 0.596078 0.447059
0.317647 0.674510 0.513726
0.580392 0.701961 0.584314
0.698039 0.698039 0.596078
0.752941 0.662745 0.560784
0.796079 0.631373 0.525490
0.823529 0.619608 0.517647
0.000000 0.549020 0.333333
0.000000 0.611765 0.396078
0.145098 0.701961 0.462745
0.356863 0.752941 0.513726
0.580392 0.760784 0.584314
0.701961 0.772549 0.623529
0.760784 0.760784 0.615686
0.796079 0.741176 0.596078
0.819608 0.733333 0.588235
0.000000 0.658824 0.372549
0.019608 0.713726 0.431373
0.200000 0.780392 0.494118
0.407843 0.796079 0.537255
0.600000 0.807843 0.603922
0.713726 0.819608 0.647059
0.772549 0.815686 0.650980
0.803922 0.803922 0.643137
0.823529 0.796079 0.639216
0.000000 0.745098 0.415686
0.062745 0.792157 0.470588
0.258824 0.823529 0.525490
0.458824 0.823529 0.572549
0.627451 0.839216 0.635294
0.733333 0.850980 0.678431
0.788235 0.850980 0.686275
0.819608 0.839216 0.678431
0.835294 0.835294 0.670588
0.000000 0.000000 0.000000
0.000000 0.000000 0.000000
0.000000 0.000000 0.000000
0.000000 0.000000 0.000000
0.000000 0.000000 0.000000
0.000000 0.000000 0.000000
0.000000 0.000000 0.000000
0.003922 0.000000 0.000000
0.035294 0.000000 0.000000
0.000000 0.000000 0.000000
0.000000 0.000000 0.047059
0.000000 0.000000 0.109804
0.000000 0.000000 0.137255
0.043137 0.000000 0.125490
0.109804 0.000000 0.098039
0.152941 0.000000 0.066667
0.188235 0.000000 0.050980
0.215686 0.000000 0.050980
0.000000 0.000000 0.094118
0.000000 0.000000 0.176471
0.000000 0.000000 0.282353
0.070588 0.000000 0.360784
0.227451 0.000000 0.356863
0.329412 0.000000 0.313726
0.384314 0.000000 0.266667
0.427451 0.000000 0.239216
0.462745 0.000000 0.231373
0.000000 0.000000 0.180392
0.000000 0.050980 0.294118
0.000000 0.113725 0.427451
0.164706 0.168627 0.533333
0.388235 0.176471 0.564706
0.533333 0.156863 0.521569
0.607843 0.129412 0.466667
0.643137 0.117647 0.423529
0.674510 0.117647 0.411765
0.000000 0.160784 0.262745
0.000000 0.243137 0.360784
0.000000 0.341176 0.482353
0.219608 0.427451 0.600000
0.486275 0.486275 0.666667
0.658824 0.490196 0.650980
0.741176 0.443137 0.603922
0.792157 0.411765 0.564706
0.823529 0.403922 0.549020
0.000000 0.329412 0.325490
0.000000 0.407843 0.400000
0.035294 0.509804 0.505882
0.258824 0.607843 0.603922
0.556863 0.674510 0.674510
0.756863 0.756863 0.756863
0.776471 0.705882 0.705882
0.800000 0.670588 0.670588
0.823529 0.654902 0.654902
0.000000 0.474510 0.372549
0.000000 0.541176 0.443137
0.090196 0.635294 0.529412
0.317647 0.705882 0.603922
0.588235 0.752941 0.682353
0.752941 0.807843 0.756863
0.815686 0.815686 0.772549
0.835294 0.796079 0.749020
0.847059 0.784314 0.737255
0.000000 0.592157 0.419608
0.000000 0.647059 0.482353
0.149020 0.725490 0.556863
0.388235 0.764706 0.615686
0.615686 0.803922 0.698039
0.764706 0.847059 0.768628
0.835294 0.862745 0.796079
0.858824 0.858824 0.796079
0.870588 0.850980 0.788235
0.000000 0.678431 0.466667
0.000000 0.729412 0.521569
0.219608 0.776471 0.584314
0.450980 0.800000 0.643137
0.650980 0.839216 0.721569
0.784314 0.874510 0.788235
0.850980 0.890196 0.819608
0.874510 0.890196 0.823529
0.886275 0.886275 0.819608
0.000000 0.000000 0.000000
0.000000 0.000000 0.000000
0.000000 0.000000 0.000000
0.000000 0.000000 0.000000
0.000000 0.000000 0.000000
0.000000 0.000000 0.000000
0.000000 0.000000 0.000000
0.000000 0.000000 0.000000
0.000000 0.000000 0.000000
0.000000 0.000000 0.000000
0.000000 0.000000 0.007843
0.000000 0.000000 0.074510
0.000000 0.000000 0.113725
0.000000 0.000000 0.117647
0.047059 0.000000 0.101961
0.098039 0.000000 0.082353
0.141176 0.000000 0.074510
0.172549 0.000000 0.074510
0.000000 0.000000 0.062745
0.000000 0.000000 0.145098
0.000000 0.000000 0.235294
0.000000 0.000000 0.321569
0.129412 0.000000 0.345098
0.239216 0.000000 0.321569
0.309804 0.000000 0.294118
0.364706 0.000000 0.274510
0.400000 0.000000 0.266667
0.000000 0.000000 0.164706
0.000000 0.000000 0.266667
0.000000 0.023529 0.400000
0.066667 0.070588 0.509804
0.278431 0.090196 0.560784
0.435294 0.086275 0.549020
0.525490 0.074510 0.509804
0.580392 0.066667 0.478431
0.619608 0.074510 0.466667
0.000000 0.086275 0.254902
0.000000 0.156863 0.356863
0.000000 0.247059 0.482353
0.141176 0.329412 0.611765
0.380392 0.380392 0.698039
0.576471 0.403922 0.705882
0.686275 0.392157 0.678431
0.749020 0.376471 0.647059
0.788235 0.376471 0.631373
0.000000 0.258824 0.337255
0.000000 0.333333 0.419608
0.000000 0.431373 0.529412
0.192157 0.529412 0.643137
0.478431 0.611765 0.709804
0.682353 0.682353 0.752941
0.764706 0.694118 0.760784
0.796079 0.674510 0.741176
0.819608 0.666667 0.733333
0.000000 0.407843 0.400000
0.000000 0.474510 0.470588
0.039216 0.568627 0.560784
0.266667 0.654902 0.650980
0.552941 0.721569 0.721569
0.749020 0.800000 0.800000
0.874510 0.874510 0.874510
0.870588 0.843137 0.843137
0.874510 0.823529 0.827451
0.000000 0.529412 0.450980
0.000000 0.588235 0.513726
0.101961 0.666667 0.592157
0.349020 0.729412 0.662745
0.600000 0.784314 0.737255
0.776471 0.850980 0.819608
0.882353 0.901961 0.882353
0.913726 0.913726 0.898039
0.917647 0.905882 0.890196
0.000000 0.619608 0.498039
0.000000 0.674510 0.552941
0.172549 0.729412 0.619608
0.423529 0.772549 0.682353
0.643137 0.827451 0.764706
0.803922 0.882353 0.839216
0.898039 0.925490 0.898039
0.933333 0.941177 0.921569
0.941177 0.941177 0.921569
0.000000 0.000000 0.000000
0.000000 0.000000 0.000000
0.000000 0.000000 0.000000
0.000000 0.000000 0.000000
0.000000 0.000000 0.000000
0.000000 0.000000 0.000000
0.000000 0.000000 0.000000
0.000000 0.000000 0.000000
0.000000 0.000000 0.000000
0.000000 0.000000 0.000000
0.000000 0.000000 0.000000
0.000000 0.000000 0.047059
0.000000 0.000000 0.094118
0.000000 0.000000 0.105882
0.000000 0.000000 0.101961
0.054902 0.000000 0.090196
0.098039 0.000000 0.082353
0.137255 0.000000 0.090196
0.000000 0.000000 0.035294
0.000000 0.000000 0.117647
0.000000 0.000000 0.211765
0.000000 0.000000 0.290196
0.066667 0.000000 0.325490
0.172549 0.000000 0.321569
0.250980 0.000000 0.305882
0.309804 0.000000 0.290196
0.349020 0.000000 0.286275
0.000000 0.000000 0.149020
0.000000 0.000000 0.243137
0.000000 0.000000 0.372549
0.000000 0.000000 0.478431
0.196078 0.027451 0.541176
0.352941 0.031373 0.549020
0.454902 0.027451 0.525490
0.521569 0.027451 0.505882
0.568627 0.035294 0.498039
0.000000 0.039216 0.243137
0.000000 0.098039 0.349020
0.000000 0.176471 0.478431
0.082353 0.254902 0.600000
0.305882 0.305882 0.694118
0.501961 0.329412 0.725490
0.627451 0.337255 0.713726
0.701961 0.333333 0.690196
0.745098 0.341176 0.678431
0.000000 0.203922 0.345098
0.000000 0.274510 0.431373
0.000000 0.368627 0.537255
0.145098 0.462745 0.658824
0.400000 0.549020 0.741176
0.619608 0.619608 0.760784
0.725490 0.650980 0.776471
0.776471 0.654902 0.772549
0.803922 0.654902 0.768628
0.000000 0.356863 0.419608
0.000000 0.423529 0.486275
0.000000 0.509804 0.576471
0.215686 0.607843 0.678431
0.505882 0.686275 0.741176
0.705882 0.760784 0.803922
0.823529 0.827451 0.854902
0.870588 0.843137 0.866667
0.878431 0.835294 0.862745
0.000000 0.478431 0.470588
0.000000 0.541176 0.533333
0.062745 0.619608 0.611765
0.305882 0.694118 0.690196
0.568627 0.760784 0.760784
0.756863 0.835294 0.835294
0.882353 0.901961 0.901961
0.964706 0.964706 0.964706
0.952941 0.945098 0.945098
0.000000 0.572549 0.517647
0.000000 0.627451 0.572549
0.129412 0.690196 0.643137
0.388235 0.745098 0.705882
0.619608 0.807843 0.780392
0.796079 0.874510 0.858824
0.909804 0.933333 0.925490
0.976471 0.976471 0.976471
0.988235 0.988235 0.984314
0.000000 0.000000 0.000000
0.000000 0.000000 0.000000
0.000000 0.000000 0.000000
0.000000 0.000000 0.000000
0.000000 0.000000 0.000000
0.000000 0.000000 0.000000
0.000000 0.000000 0.000000
0.000000 0.000000 0.000000
0.000000 0.000000 0.000000
0.000000 0.000000 0.000000
0.000000 0.000000 0.000000
0.000000 0.000000 0.027451
0.000000 0.000000 0.078431
0.000000 0.000000 0.101961
0.000000 0.000000 0.098039
0.027451 0.000000 0.094118
0.074510 0.000000 0.090196
0.117647 0.000000 0.098039
0.000000 0.000000 0.023529
0.000000 0.000000 0.105882
0.000000 0.000000 0.200000
0.000000 0.000000 0.274510
0.035294 0.000000 0.317647
0.137255 0.000000 0.321569
0.215686 0.000000 0.309804
0.274510 0.000000 0.301961
0.321569 0.000000 0.301961
0.000000 0.000000 0.137255
0.000000 0.000000 0.227451
0.000000 0.000000 0.356863
0.000000 0.000000 0.462745
0.149020 0.000000 0.525490
0.305882 0.000000 0.545098
0.411765 0.000000 0.533333
0.482353 0.000000 0.517647
0.533333 0.007843 0.513726
0.000000 0.007843 0.235294
0.000000 0.062745 0.341176
0.000000 0.137255 0.470588
0.047059 0.211765 0.588235
0.262745 0.262745 0.686275
0.450980 0.290196 0.729412
0.584314 0.298039 0.729412
0.666667 0.305882 0.709804
0.717647 0.317647 0.701961
0.000000 0.168627 0.352941
0.000000 0.239216 0.443137
0.000000 0.325490 0.537255
0.117647 0.419608 0.658824
0.352941 0.501961 0.752941
0.580392 0.580392 0.776471
0.694118 0.619608 0.784314
0.756863 0.631373 0.784314
0.788235 0.635294 0.784314
0.000000 0.325490 0.431373
0.000000 0.388235 0.498039
0.000000 0.474510 0.584314
0.188235 0.572549 0.690196
0.470588 0.658824 0.756863
0.670588 0.733333 0.807843
0.792157 0.792157 0.847059
0.850980 0.819608 0.866667
0.870588 0.827451 0.870588
0.000000 0.447059 0.486275
0.000000 0.509804 0.545098
0.039216 0.584314 0.623529
0.278431 0.670588 0.705882
0.541176 0.741176 0.772549
0.737255 0.815686 0.835294
0.862745 0.882353 0.898039
0.933333 0.933333 0.941177
0.952941 0.949020 0.952941
0.000000 0.541176 0.533333
0.000000 0.596078 0.588235
0.105882 0.658824 0.654902
0.364706 0.725490 0.721569
0.600000 0.792157 0.792157
0.780392 0.862745 0.862745
0.901961 0.925490 0.925490
0.976471 0.980392 0.980392
1.000000 1.000000 1.000000
