public/cube/Linny_v2.cube
TITLE "Generated by Resolve"
LUT_3D_SIZE 9
0.000000 0.000000 0.000000
0.039216 0.000000 0.000000
0.125490 0.000000 0.000000
0.180392 0.000000 0.000000
0.231373 0.000000 0.000000
0.282353 0.000000 0.000000
0.329412 0.000000 0.000000
0.396078 0.000000 0.000000
0.462745 0.000000 0.000000
0.000000 0.070588 0.000000
0.105882 0.105882 0.000000
0.227451 0.035294 0.000000
0.282353 0.003922 0.000000
0.337255 0.000000 0.000000
0.388235 0.000000 0.000000
0.458824 0.000000 0.000000
0.521569 0.000000 0.000000
0.580392 0.000000 0.000000
0.000000 0.188235 0.000000
0.000000 0.211765 0.000000
0.270588 0.270588 0.000000
0.376471 0.227451 0.000000
0.447059 0.200000 0.000000
0.505882 0.180392 0.000000
0.568627 0.160784 0.000000
0.623529 0.149020 0.000000
0.674510 0.152941 0.000000
0.000000 0.309804 0.000000
0.019608 0.325490 0.000000
0.235294 0.392157 0.000000
0.427451 0.427451 0.011765
0.517647 0.400000 0.035294
0.592157 0.380392 0.031373
0.650980 0.372549 0.031373
0.694118 0.380392 0.066667
0.721569 0.400000 0.113725
0.000000 0.427451 0.000000
0.070588 0.443137 0.000000
0.227451 0.482353 0.000000
0.435294 0.549020 0.070588
0.568627 0.568627 0.133333
0.639216 0.556863 0.168627
0.690196 0.556863 0.203922
0.737255 0.560784 0.231373
0.772549 0.572549 0.254902
0.027451 0.537255 0.027451
0.168627 0.552941 0.078431
0.290196 0.580392 0.086275
0.454902 0.635294 0.152941
0.600000 0.682353 0.223529
0.694118 0.694118 0.262745
0.749020 0.694118 0.290196
0.792157 0.694118 0.317647
0.827451 0.705882 0.345098
0.172549 0.635294 0.172549
0.258824 0.650980 0.180392
0.356863 0.670588 0.180392
0.494118 0.713726 0.223529
0.631373 0.760784 0.290196
0.733333 0.792157 0.337255
0.800000 0.800000 0.368627
0.847059 0.803922 0.392157
0.878431 0.811765 0.411765
0.270588 0.725490 0.270588
0.341176 0.737255 0.270588
0.423529 0.752941 0.266667
0.541176 0.784314 0.298039
0.666667 0.831373 0.349020
0.768628 0.862745 0.400000
0.839216 0.882353 0.435294
0.890196 0.890196 0.458824
0.921569 0.894118 0.474510
0.356863 0.803922 0.356863
0.411765 0.811765 0.349020
0.490196 0.823529 0.341176
0.592157 0.850980 0.360784
0.705882 0.890196 0.407843
0.803922 0.921569 0.454902
0.874510 0.941177 0.486275
0.925490 0.952941 0.509804
0.956863 0.956863 0.529412
0.000000 0.000000 0.047059
0.043137 0.000000 0.043137
0.141176 0.000000 0.000000
0.215686 0.000000 0.000000
0.254902 0.000000 0.000000
0.305882 0.000000 0.000000
0.345098 0.000000 0.000000
0.415686 0.000000 0.000000
0.482353 0.000000 0.000000
0.000000 0.070588 0.070588
0.105882 0.105882 0.105882
0.215686 0.019608 0.019608
0.301961 0.000000 0.000000
0.352941 0.000000 0.000000
0.407843 0.000000 0.000000
0.462745 0.000000 0.000000
0.529412 0.000000 0.000000
0.584314 0.000000 0.000000
0.000000 0.207843 0.000000
0.000000 0.231373 0.000000
0.274510 0.274510 0.019608
0.392157 0.203922 0.007843
0.454902 0.168627 0.011765
0.509804 0.156863 0.023529
0.560784 0.152941 0.027451
0.619608 0.141176 0.019608
0.666667 0.145098 0.019608
0.000000 0.329412 0.023529
0.000000 0.349020 0.000000
0.184314 0.380392 0.000000
0.431373 0.431373 0.070588
0.533333 0.392157 0.082353
0.600000 0.372549 0.101961
0.643137 0.368627 0.133333
0.682353 0.376471 0.160784
0.713726 0.396078 0.200000
0.000000 0.447059 0.074510
0.047059 0.466667 0.047059
0.192157 0.482353 0.035294
0.411765 0.549020 0.113725
0.572549 0.572549 0.188235
0.650980 0.556863 0.211765
0.705882 0.549020 0.235294
0.749020 0.552941 0.258824
0.784314 0.564706 0.290196
0.058824 0.552941 0.152941
0.149020 0.572549 0.149020
0.266667 0.584314 0.149020
0.427451 0.627451 0.188235
0.592157 0.682353 0.262745
0.698039 0.698039 0.305882
0.756863 0.694118 0.325490
0.803922 0.694118 0.345098
0.839216 0.698039 0.368627
0.180392 0.650980 0.258824
0.243137 0.666667 0.243137
0.337255 0.678431 0.235294
0.466667 0.709804 0.262745
0.615686 0.760784 0.321569
0.729412 0.796079 0.376471
0.803922 0.803922 0.403922
0.850980 0.803922 0.423529
0.886275 0.807843 0.439216
0.274510 0.737255 0.341176
0.325490 0.752941 0.325490
0.411765 0.764706 0.317647
0.517647 0.784314 0.333333
0.643137 0.823529 0.376471
0.760784 0.862745 0.431373
0.839216 0.882353 0.466667
0.890196 0.890196 0.486275
0.925490 0.894118 0.501961
0.349020 0.815686 0.415686
0.400000 0.827451 0.400000
0.474510 0.835294 0.388235
0.568627 0.850980 0.396078
0.682353 0.882353 0.431373
0.788235 0.917647 0.482353
0.870588 0.941177 0.517647
0.921569 0.952941 0.541176
0.956863 0.956863 0.556863
0.000000 0.000000 0.145098
0.007843 0.000000 0.152941
0.133333 0.000000 0.133333
0.223529 0.000000 0.086275
0.270588 0.000000 0.058824
0.325490 0.000000 0.047059
0.372549 0.000000 0.050980
0.435294 0.000000 0.047059
0.501961 0.000000 0.047059
0.000000 0.031373 0.200000
0.047059 0.047059 0.231373
0.215686 0.015686 0.215686
0.341176 0.000000 0.145098
0.384314 0.000000 0.113725
0.439216 0.000000 0.098039
0.482353 0.000000 0.101961
0.545098 0.000000 0.090196
0.603922 0.000000 0.090196
0.000000 0.192157 0.192157
0.000000 0.231373 0.231373
0.270588 0.270588 0.270588
0.403922 0.141176 0.141176
0.470588 0.121569 0.121569
0.525490 0.121569 0.121569
0.568627 0.133333 0.133333
0.619608 0.141176 0.141176
0.666667 0.149020 0.149020
0.000000 0.333333 0.180392
0.000000 0.368627 0.176471
0.117647 0.392157 0.117647
0.435294 0.435294 0.156863
0.549020 0.364706 0.164706
0.607843 0.333333 0.172549
0.650980 0.325490 0.188235
0.686275 0.341176 0.219608
0.721569 0.360784 0.250980
0.000000 0.454902 0.203922
0.035294 0.486275 0.192157
0.156863 0.505882 0.156863
0.345098 0.533333 0.137255
0.580392 0.580392 0.243137
0.662745 0.549020 0.274510
0.717647 0.537255 0.294118
0.760784 0.533333 0.317647
0.792157 0.541176 0.341176
0.066667 0.564706 0.270588
0.145098 0.592157 0.266667
0.247059 0.607843 0.247059
0.380392 0.623529 0.235294
0.568627 0.682353 0.301961
0.701961 0.701961 0.356863
0.764706 0.690196 0.372549
0.811765 0.686275 0.396078
0.847059 0.690196 0.415686
0.168627 0.662745 0.345098
0.235294 0.686275 0.341176
0.325490 0.701961 0.325490
0.431373 0.709804 0.313726
0.576471 0.749020 0.349020
0.721569 0.796079 0.411765
0.807843 0.807843 0.447059
0.854902 0.803922 0.466667
0.890196 0.803922 0.482353
0.258824 0.749020 0.419608
0.317647 0.768628 0.411765
0.400000 0.780392 0.400000
0.490196 0.788235 0.384314
0.607843 0.815686 0.403922
0.737255 0.862745 0.458824
0.835294 0.886275 0.501961
0.890196 0.890196 0.525490
0.929412 0.894118 0.541176
0.337255 0.823529 0.486275
0.392157 0.839216 0.478431
0.466667 0.850980 0.466667
0.545098 0.854902 0.450980
0.643137 0.874510 0.458824
0.764706 0.913726 0.501961
0.858824 0.941177 0.545098
0.917647 0.952941 0.572549
0.956863 0.956863 0.592157
0.000000 0.000000 0.211765
0.000000 0.000000 0.243137
0.098039 0.000000 0.239216
0.192157 0.000000 0.192157
0.266667 0.000000 0.168627
0.333333 0.000000 0.156863
0.380392 0.000000 0.152941
0.450980 0.000000 0.156863
0.517647 0.000000 0.160784
0.000000 0.003922 0.270588
0.000000 0.000000 0.345098
0.168627 0.000000 0.364706
0.305882 0.000000 0.305882
0.388235 0.000000 0.258824
0.454902 0.000000 0.231373
0.498039 0.000000 0.227451
0.564706 0.000000 0.223529
0.619608 0.000000 0.227451
0.000000 0.168627 0.313726
0.000000 0.184314 0.380392
0.184314 0.184314 0.439216
0.400000 0.137255 0.400000
0.501961 0.113725 0.313726
0.552941 0.117647 0.282353
0.603922 0.125490 0.266667
0.635294 0.152941 0.278431
0.682353 0.164706 0.286275
0.000000 0.317647 0.317647
0.000000 0.352941 0.352941
0.113725 0.388235 0.388235
0.427451 0.427451 0.427451
0.556863 0.301961 0.301961
0.619608 0.282353 0.282353
0.662745 0.294118 0.294118
0.698039 0.313726 0.313726
0.729412 0.341176 0.341176
0.000000 0.450980 0.337255
0.039216 0.486275 0.349020
0.137255 0.521569 0.337255
0.321569 0.541176 0.321569
0.580392 0.580392 0.376471
0.686275 0.517647 0.325490
0.733333 0.494118 0.341176
0.764706 0.498039 0.376471
0.796079 0.505882 0.396078
0.070588 0.568627 0.380392
0.145098 0.596078 0.392157
0.235294 0.623529 0.380392
0.309804 0.643137 0.309804
0.513726 0.666667 0.337255
0.705882 0.705882 0.388235
0.784314 0.678431 0.396078
0.827451 0.670588 0.443137
0.858824 0.670588 0.466667
0.168627 0.666667 0.443137
0.235294 0.694118 0.447059
0.313726 0.717647 0.435294
0.392157 0.729412 0.392157
0.498039 0.741176 0.345098
0.690196 0.796079 0.411765
0.811765 0.811765 0.462745
0.866667 0.800000 0.498039
0.898039 0.796079 0.525490
0.258824 0.752941 0.505882
0.317647 0.776471 0.505882
0.388235 0.796079 0.494118
0.470588 0.807843 0.470588
0.549020 0.811765 0.423529
0.690196 0.850980 0.450980
0.819608 0.886275 0.517647
0.894118 0.894118 0.556863
0.933333 0.890196 0.580392
0.333333 0.831373 0.564706
0.388235 0.847059 0.564706
0.454902 0.862745 0.549020
0.525490 0.870588 0.525490
0.603922 0.874510 0.498039
0.713726 0.898039 0.505882
0.835294 0.937255 0.560784
0.913726 0.956863 0.600000
0.956863 0.956863 0.623529
0.000000 0.000000 0.219608
0.000000 0.000000 0.250980
0.066667 0.000000 0.270588
0.168627 0.000000 0.266667
0.254902 0.000000 0.254902
0.325490 0.000000 0.247059
0.384314 0.000000 0.243137
0.458824 0.000000 0.250980
0.525490 0.000000 0.266667
0.000000 0.000000 0.309804
0.003922 0.003922 0.360784
0.133333 0.000000 0.396078
0.266667 0.000000 0.392157
0.368627 0.000000 0.368627
0.447059 0.000000 0.345098
0.501961 0.000000 0.333333
0.568627 0.000000 0.333333
0.627451 0.000000 0.341176
0.000000 0.149020 0.384314
0.015686 0.164706 0.443137
0.160784 0.160784 0.505882
0.337255 0.137255 0.521569
0.474510 0.121569 0.474510
0.552941 0.121569 0.427451
0.615686 0.129412 0.403922
0.654902 0.152941 0.400000
0.690196 0.180392 0.407843
0.000000 0.301961 0.419608
0.023529 0.329412 0.466667
0.149020 0.349020 0.533333
0.345098 0.345098 0.600000
0.552941 0.301961 0.552941
0.658824 0.258824 0.470588
0.690196 0.294118 0.447059
0.725490 0.313726 0.443137
0.756863 0.337255 0.454902
0.000000 0.443137 0.443137
0.054902 0.474510 0.474510
0.164706 0.505882 0.505882
0.325490 0.541176 0.541176
0.576471 0.576471 0.576471
0.666667 0.501961 0.501961
0.741176 0.450980 0.450980
0.788235 0.439216 0.439216
0.811765 0.474510 0.474510
0.094118 0.564706 0.482353
0.156863 0.592157 0.501961
0.243137 0.623529 0.513726
0.317647 0.654902 0.498039
0.521569 0.670588 0.521569
0.701961 0.701961 0.556863
0.784314 0.666667 0.525490
0.839216 0.631373 0.494118
0.874510 0.619608 0.490196
0.180392 0.666667 0.529412
0.243137 0.694118 0.545098
0.313726 0.721569 0.545098
0.349020 0.749020 0.501961
0.505882 0.756863 0.505882
0.670588 0.780392 0.537255
0.811765 0.811765 0.572549
0.874510 0.788235 0.556863
0.917647 0.776471 0.549020
0.262745 0.752941 0.588235
0.321569 0.776471 0.596078
0.384314 0.800000 0.592157
0.435294 0.823529 0.556863
0.517647 0.831373 0.517647
0.654902 0.839216 0.529412
0.803922 0.882353 0.580392
0.894118 0.894118 0.600000
0.941177 0.886275 0.596078
0.337255 0.831373 0.639216
0.392157 0.850980 0.643137
0.450980 0.870588 0.635294
0.509804 0.882353 0.615686
0.549020 0.890196 0.549020
0.662745 0.894118 0.549020
0.796079 0.925490 0.588235
0.901961 0.956863 0.623529
0.960784 0.960784 0.635294
0.000000 0.000000 0.243137
0.000000 0.000000 0.278431
0.050980 0.000000 0.305882
0.149020 0.000000 0.313726
0.239216 0.000000 0.317647
0.313726 0.000000 0.313726
0.384314 0.000000 0.321569
0.462745 0.000000 0.337255
0.529412 0.000000 0.352941
0.000000 0.000000 0.345098
0.000000 0.000000 0.396078
0.117647 0.000000 0.435294
0.239216 0.000000 0.450980
0.345098 0.000000 0.443137
0.427451 0.000000 0.427451
0.501961 0.000000 0.423529
0.568627 0.000000 0.427451
0.627451 0.000000 0.439216
0.000000 0.137255 0.431373
0.019608 0.149020 0.494118
0.152941 0.152941 0.549020
0.301961 0.145098 0.576471
0.435294 0.133333 0.560784
0.533333 0.129412 0.533333
0.603922 0.137255 0.513726
0.650980 0.160784 0.501961
0.694118 0.188235 0.505882
0.000000 0.286275 0.490196
0.043137 0.313726 0.541176
0.164706 0.325490 0.603922
0.321569 0.321569 0.658824
0.498039 0.286275 0.682353
0.619608 0.286275 0.619608
0.686275 0.298039 0.580392
0.729412 0.317647 0.564706
0.764706 0.341176 0.564706
0.000000 0.427451 0.525490
0.086275 0.458824 0.560784
0.192157 0.486275 0.611765
0.294118 0.498039 0.678431
0.521569 0.521569 0.690196
0.662745 0.501961 0.662745
0.752941 0.462745 0.623529
0.815686 0.439216 0.592157
0.847059 0.450980 0.584314
0.109804 0.556863 0.556863
0.172549 0.584314 0.584314
0.258824 0.615686 0.615686
0.313726 0.643137 0.643137
0.525490 0.674510 0.674510
0.701961 0.701961 0.701961
0.768628 0.654902 0.654902
0.827451 0.623529 0.623529
0.870588 0.607843 0.607843
0.200000 0.662745 0.603922
0.250980 0.690196 0.623529
0.325490 0.717647 0.639216
0.356863 0.745098 0.635294
0.521569 0.768628 0.654902
0.674510 0.784314 0.674510
0.807843 0.807843 0.701961
0.866667 0.784314 0.678431
0.905882 0.764706 0.662745
0.278431 0.752941 0.654902
0.329412 0.776471 0.666667
0.392157 0.800000 0.674510
0.431373 0.823529 0.662745
0.529412 0.843137 0.654902
0.670588 0.850980 0.670588
0.788235 0.870588 0.690196
0.890196 0.890196 0.717647
0.937255 0.878431 0.705882
0.345098 0.827451 0.705882
0.396078 0.847059 0.713726
0.454902 0.870588 0.717647
0.498039 0.886275 0.701961
0.552941 0.901961 0.670588
0.678431 0.905882 0.678431
0.784314 0.913726 0.690196
0.894118 0.949020 0.729412
0.956863 0.956863 0.741176
0.000000 0.000000 0.266667
0.000000 0.000000 0.305882
0.039216 0.000000 0.337255
0.137255 0.000000 0.356863
0.227451 0.000000 0.360784
0.305882 0.000000 0.368627
0.388235 0.000000 0.388235
0.462745 0.000000 0.407843
0.529412 0.000000 0.427451
0.000000 0.000000 0.376471
0.000000 0.000000 0.427451
0.105882 0.000000 0.470588
0.223529 0.000000 0.490196
0.325490 0.000000 0.490196
0.415686 0.000000 0.490196
0.498039 0.000000 0.498039
0.568627 0.000000 0.505882
0.627451 0.000000 0.517647
0.000000 0.125490 0.482353
0.035294 0.149020 0.521569
0.149020 0.149020 0.584314
0.286275 0.145098 0.615686
0.411765 0.137255 0.619608
0.513726 0.137255 0.603922
0.588235 0.152941 0.588235
0.643137 0.172549 0.580392
0.690196 0.192157 0.584314
0.000000 0.274510 0.556863
0.058824 0.301961 0.588235
0.172549 0.313726 0.650980
0.313726 0.313726 0.698039
0.462745 0.305882 0.717647
0.588235 0.301961 0.698039
0.666667 0.309804 0.666667
0.721569 0.329412 0.650980
0.760784 0.349020 0.647059
0.000000 0.415686 0.596078
0.105882 0.450980 0.623529
0.211765 0.474510 0.670588
0.337255 0.486275 0.721569
0.478431 0.478431 0.784314
0.635294 0.474510 0.768628
0.741176 0.454902 0.741176
0.811765 0.439216 0.713726
0.850980 0.450980 0.698039
0.113725 0.552941 0.615686
0.188235 0.580392 0.647059
0.278431 0.603922 0.682353
0.349020 0.623529 0.733333
0.498039 0.647059 0.768628
0.666667 0.666667 0.780392
0.768628 0.654902 0.768628
0.835294 0.631373 0.745098
0.878431 0.619608 0.729412
0.219608 0.658824 0.658824
0.266667 0.682353 0.682353
0.341176 0.709804 0.709804
0.392157 0.733333 0.733333
0.513726 0.760784 0.760784
0.678431 0.784314 0.784314
0.807843 0.807843 0.807843
0.858824 0.776471 0.776471
0.898039 0.756863 0.756863
0.294118 0.749020 0.709804
0.337255 0.772549 0.725490
0.403922 0.796079 0.741176
0.450980 0.819608 0.752941
0.529412 0.843137 0.756863
0.678431 0.858824 0.780392
0.792157 0.870588 0.792157
0.890196 0.890196 0.815686
0.933333 0.874510 0.800000
0.360784 0.823529 0.756863
0.403922 0.843137 0.768628
0.462745 0.866667 0.780392
0.509804 0.886275 0.780392
0.552941 0.901961 0.768628
0.690196 0.917647 0.784314
0.796079 0.921569 0.796079
0.882353 0.937255 0.811765
0.952941 0.952941 0.831373
0.000000 0.000000 0.290196
0.000000 0.000000 0.329412
0.035294 0.000000 0.364706
0.133333 0.000000 0.384314
0.219608 0.000000 0.392157
0.309804 0.000000 0.419608
0.388235 0.000000 0.443137
0.466667 0.000000 0.466667
0.533333 0.000000 0.490196
0.000000 0.000000 0.396078
0.003922 0.003922 0.443137
0.105882 0.007843 0.486275
0.215686 0.003922 0.517647
0.317647 0.000000 0.537255
0.411765 0.000000 0.549020
0.498039 0.000000 0.556863
0.568627 0.000000 0.568627
0.627451 0.000000 0.580392
0.000000 0.117647 0.533333
0.019608 0.137255 0.576471
0.152941 0.152941 0.607843
0.278431 0.152941 0.635294
0.396078 0.149020 0.650980
0.498039 0.152941 0.643137
0.576471 0.164706 0.639216
0.639216 0.172549 0.639216
0.682353 0.200000 0.639216
0.000000 0.262745 0.611765
0.047059 0.290196 0.643137
0.192157 0.313726 0.674510
0.313726 0.313726 0.729412
0.447059 0.309804 0.749020
0.564706 0.309804 0.741176
0.650980 0.321569 0.721569
0.709804 0.337255 0.709804
0.756863 0.356863 0.709804
0.000000 0.407843 0.647059
0.101961 0.443137 0.670588
0.227451 0.466667 0.713726
0.352941 0.478431 0.756863
0.474510 0.474510 0.815686
0.611765 0.450980 0.843137
0.721569 0.443137 0.819608
0.796079 0.447059 0.796079
0.839216 0.466667 0.776471
0.117647 0.549020 0.658824
0.211765 0.576471 0.690196
0.294118 0.600000 0.733333
0.388235 0.619608 0.776471
0.474510 0.623529 0.839216
0.635294 0.635294 0.850980
0.752941 0.639216 0.843137
0.827451 0.627451 0.827451
0.878431 0.619608 0.815686
0.223529 0.654902 0.701961
0.278431 0.682353 0.729412
0.356863 0.705882 0.760784
0.427451 0.725490 0.792157
0.498039 0.745098 0.831373
0.658824 0.764706 0.850980
0.780392 0.780392 0.862745
0.858824 0.776471 0.858824
0.901961 0.764706 0.847059
0.313726 0.749020 0.749020
0.349020 0.768628 0.768628
0.415686 0.792157 0.792157
0.478431 0.811765 0.811765
0.521569 0.831373 0.831373
0.670588 0.854902 0.854902
0.796079 0.874510 0.874510
0.890196 0.890196 0.890196
0.925490 0.870588 0.870588
0.372549 0.823529 0.796079
0.411765 0.843137 0.811765
0.470588 0.862745 0.827451
0.525490 0.878431 0.839216
0.552941 0.898039 0.843137
0.690196 0.913726 0.858824
0.803922 0.929412 0.874510
0.886275 0.937255 0.886275
0.952941 0.952941 0.898039
0.000000 0.000000 0.309804
0.000000 0.000000 0.345098
0.039216 0.000000 0.380392
0.133333 0.000000 0.403922
0.223529 0.000000 0.435294
0.313726 0.000000 0.466667
0.396078 0.000000 0.490196
0.470588 0.000000 0.513726
0.537255 0.000000 0.537255
0.000000 0.000000 0.435294
0.000000 0.000000 0.486275
0.101961 0.000000 0.529412
0.211765 0.000000 0.560784
0.317647 0.000000 0.580392
0.411765 0.000000 0.596078
0.498039 0.000000 0.603922
0.568627 0.000000 0.615686
0.627451 0.000000 0.627451
0.000000 0.109804 0.576471
0.011765 0.129412 0.615686
0.145098 0.145098 0.647059
0.274510 0.152941 0.666667
0.392157 0.160784 0.678431
0.490196 0.160784 0.682353
0.572549 0.160784 0.682353
0.635294 0.176471 0.682353
0.682353 0.207843 0.682353
0.000000 0.258824 0.650980
0.039216 0.286275 0.682353
0.188235 0.309804 0.709804
0.317647 0.317647 0.749020
0.443137 0.313726 0.776471
0.556863 0.321569 0.768628
0.639216 0.333333 0.756863
0.701961 0.349020 0.749020
0.749020 0.368627 0.749020
0.000000 0.403922 0.690196
0.109804 0.439216 0.705882
0.243137 0.466667 0.741176
0.360784 0.478431 0.784314
0.482353 0.482353 0.823529
0.600000 0.466667 0.854902
0.701961 0.458824 0.854902
0.776471 0.466667 0.835294
0.823529 0.486275 0.823529
0.125490 0.549020 0.694118
0.231373 0.576471 0.721569
0.309804 0.596078 0.764706
0.400000 0.615686 0.807843
0.482353 0.615686 0.874510
0.619608 0.619608 0.898039
0.737255 0.623529 0.894118
0.819608 0.619608 0.882353
0.874510 0.615686 0.874510
0.227451 0.658824 0.733333
0.294118 0.682353 0.760784
0.368627 0.701961 0.792157
0.443137 0.721569 0.831373
0.494118 0.733333 0.882353
0.643137 0.752941 0.898039
0.764706 0.764706 0.909804
0.847059 0.764706 0.905882
0.898039 0.760784 0.898039
0.317647 0.749020 0.776471
0.360784 0.768628 0.800000
0.427451 0.792157 0.827451
0.490196 0.807843 0.850980
0.521569 0.823529 0.882353
0.662745 0.843137 0.901961
0.784314 0.862745 0.917647
0.874510 0.874510 0.929412
0.925490 0.874510 0.925490
0.388235 0.823529 0.823529
0.419608 0.843137 0.843137
0.478431 0.858824 0.858824
0.537255 0.874510 0.874510
0.552941 0.890196 0.890196
0.682353 0.909804 0.909804
0.800000 0.925490 0.925490
0.886275 0.937255 0.937255
0.949020 0.949020 0.949020
