public/cube/Linny_v2.cube
TITLE "Generated by Resolve"
LUT_3D_SIZE 33
0.000000 0.000000 0.000000
0.000000 0.000000 0.000000
0.000000 0.000000 0.000000
0.019608 0.000000 0.000000
0.039216 0.000000 0.000000
0.058824 0.000000 0.000000
0.082353 0.000000 0.000000
0.101961 0.000000 0.000000
0.125490 0.000000 0.000000
0.149020 0.000000 0.000000
0.168627 0.000000 0.000000
0.180392 0.000000 0.000000
0.180392 0.000000 0.000000
0.192157 0.000000 0.000000
0.203922 0.000000 0.000000
0.219608 0.000000 0.000000
0.231373 0.000000 0.000000
0.243137 0.000000 0.000000
0.254902 0.000000 0.000000
0.270588 0.000000 0.000000
0.282353 0.000000 0.000000
0.294118 0.000000 0.000000
0.301961 0.000000 0.000000
0.313726 0.000000 0.000000
0.329412 0.000000 0.000000
0.345098 0.000000 0.000000
0.364706 0.000000 0.000000
0.380392 0.000000 0.000000
0.396078 0.000000 0.000000
0.415686 0.000000 0.000000
0.431373 0.000000 0.000000
0.447059 0.000000 0.000000
0.462745 0.000000 0.000000
0.000000 0.000000 0.000000
0.000000 0.000000 0.000000
0.015686 0.000000 0.000000
0.035294 0.000000 0.000000
0.054902 0.000000 0.000000
0.074510 0.000000 0.000000
0.098039 0.000000 0.000000
0.121569 0.000000 0.000000
0.145098 0.000000 0.000000
0.168627 0.000000 0.000000
0.188235 0.000000 0.000000
0.196078 0.000000 0.000000
0.203922 0.000000 0.000000
0.215686 0.000000 0.000000
0.227451 0.000000 0.000000
0.239216 0.000000 0.000000
0.254902 0.000000 0.000000
0.266667 0.000000 0.000000
0.282353 0.000000 0.000000
0.294118 0.000000 0.000000
0.305882 0.000000 0.000000
0.313726 0.000000 0.000000
0.325490 0.000000 0.000000
0.341176 0.000000 0.000000
0.360784 0.000000 0.000000
0.376471 0.000000 0.000000
0.392157 0.000000 0.000000
0.411765 0.000000 0.000000
0.427451 0.000000 0.000000
0.447059 0.000000 0.000000
0.462745 0.000000 0.000000
0.478431 0.000000 0.000000
0.494118 0.000000 0.000000
0.000000 0.015686 0.000000
0.000000 0.019608 0.000000
0.031373 0.031373 0.000000
0.054902 0.023529 0.000000
0.078431 0.007843 0.000000
0.098039 0.000000 0.000000
0.121569 0.000000 0.000000
0.145098 0.000000 0.000000
0.168627 0.000000 0.000000
0.196078 0.000000 0.000000
0.211765 0.000000 0.000000
0.219608 0.000000 0.000000
0.227451 0.000000 0.000000
0.239216 0.000000 0.000000
0.254902 0.000000 0.000000
0.266667 0.000000 0.000000
0.282353 0.000000 0.000000
0.294118 0.000000 0.000000
0.309804 0.000000 0.000000
0.321569 0.000000 0.000000
0.333333 0.000000 0.000000
0.341176 0.000000 0.000000
0.356863 0.000000 0.000000
0.376471 0.000000 0.000000
0.392157 0.000000 0.000000
0.411765 0.000000 0.000000
0.427451 0.000000 0.000000
0.447059 0.000000 0.000000
0.462745 0.000000 0.000000
0.478431 0.000000 0.000000
0.494118 0.000000 0.000000
0.509804 0.000000 0.000000
0.525490 0.000000 0.000000
0.000000 0.043137 0.000000
0.000000 0.043137 0.000000
0.023529 0.058824 0.000000
0.066667 0.066667 0.000000
0.094118 0.058824 0.000000
0.121569 0.043137 0.000000
0.149020 0.023529 0.000000
0.172549 0.000000 0.000000
0.196078 0.000000 0.000000
0.223529 0.000000 0.000000
0.235294 0.000000 0.000000
0.243137 0.000000 0.000000
0.254902 0.000000 0.000000
0.266667 0.000000 0.000000
0.282353 0.000000 0.000000
0.294118 0.000000 0.000000
0.309804 0.000000 0.000000
0.325490 0.000000 0.000000
0.337255 0.000000 0.000000
0.349020 0.000000 0.000000
0.356863 0.000000 0.000000
0.372549 0.000000 0.000000
0.392157 0.000000 0.000000
0.407843 0.000000 0.000000
0.427451 0.000000 0.000000
0.443137 0.000000 0.000000
0.458824 0.000000 0.000000
0.478431 0.000000 0.000000
0.494118 0.000000 0.000000
0.509804 0.000000 0.000000
0.525490 0.000000 0.000000
0.537255 0.000000 0.000000
0.552941 0.000000 0.000000
0.000000 0.070588 0.000000
0.000000 0.070588 0.000000
0.003922 0.082353 0.000000
0.058824 0.098039 0.000000
0.105882 0.105882 0.000000
0.137255 0.094118 0.000000
0.168627 0.078431 0.000000
0.200000 0.058824 0.000000
0.227451 0.035294 0.000000
0.250980 0.011765 0.000000
0.258824 0.007843 0.000000
0.266667 0.011765 0.000000
0.282353 0.003922 0.000000
0.298039 0.000000 0.000000
0.309804 0.000000 0.000000
0.325490 0.000000 0.000000
0.337255 0.000000 0.000000
0.352941 0.000000 0.000000
0.364706 0.000000 0.000000
0.376471 0.000000 0.000000
0.388235 0.000000 0.000000
0.403922 0.000000 0.000000
0.423529 0.000000 0.000000
0.439216 0.000000 0.000000
0.458824 0.000000 0.000000
0.474510 0.000000 0.000000
0.490196 0.000000 0.000000
0.505882 0.000000 0.000000
0.521569 0.000000 0.000000
0.537255 0.000000 0.000000
0.552941 0.000000 0.000000
0.564706 0.000000 0.000000
0.580392 0.000000 0.000000
0.000000 0.098039 0.000000
0.000000 0.101961 0.000000
0.000000 0.105882 0.000000
0.035294 0.121569 0.000000
0.098039 0.141176 0.000000
0.149020 0.149020 0.000000
0.184314 0.133333 0.000000
0.215686 0.113725 0.000000
0.247059 0.094118 0.000000
0.270588 0.078431 0.000000
0.282353 0.070588 0.000000
0.294118 0.066667 0.000000
0.309804 0.058824 0.000000
0.325490 0.050980 0.000000
0.337255 0.047059 0.000000
0.352941 0.039216 0.000000
0.368627 0.035294 0.000000
0.380392 0.035294 0.000000
0.392157 0.035294 0.000000
0.403922 0.039216 0.000000
0.419608 0.035294 0.000000
0.435294 0.027451 0.000000
0.454902 0.023529 0.000000
0.470588 0.015686 0.000000
0.486275 0.011765 0.000000
0.501961 0.007843 0.000000
0.517647 0.003922 0.000000
0.533333 0.000000 0.000000
0.549020 0.000000 0.000000
0.564706 0.000000 0.000000
0.576471 0.000000 0.000000
0.592157 0.000000 0.000000
0.603922 0.000000 0.000000
0.000000 0.129412 0.000000
0.000000 0.129412 0.000000
0.000000 0.133333 0.000000
0.000000 0.145098 0.000000
0.066667 0.168627 0.000000
0.133333 0.188235 0.000000
0.192157 0.192157 0.000000
0.227451 0.176471 0.000000
0.262745 0.156863 0.000000
0.282353 0.141176 0.000000
0.301961 0.133333 0.000000
0.321569 0.125490 0.000000
0.337255 0.113725 0.000000
0.352941 0.105882 0.000000
0.368627 0.101961 0.000000
0.384314 0.094118 0.000000
0.396078 0.090196 0.000000
0.411765 0.086275 0.000000
0.419608 0.086275 0.000000
0.431373 0.090196 0.000000
0.450980 0.082353 0.000000
0.466667 0.074510 0.000000
0.482353 0.070588 0.000000
0.501961 0.062745 0.000000
0.517647 0.058824 0.000000
0.533333 0.054902 0.000000
0.545098 0.050980 0.000000
0.560784 0.050980 0.000000
0.576471 0.047059 0.000000
0.592157 0.047059 0.000000
0.603922 0.047059 0.000000
0.615686 0.047059 0.000000
0.627451 0.047059 0.000000
0.000000 0.160784 0.000000
0.000000 0.160784 0.000000
0.000000 0.164706 0.000000
0.000000 0.172549 0.000000
0.023529 0.188235 0.000000
0.101961 0.215686 0.000000
0.176471 0.235294 0.000000
0.231373 0.231373 0.000000
0.266667 0.215686 0.000000
0.294118 0.203922 0.000000
0.317647 0.192157 0.000000
0.337255 0.180392 0.000000
0.356863 0.172549 0.000000
0.376471 0.164706 0.000000
0.392157 0.156863 0.000000
0.407843 0.149020 0.000000
0.423529 0.141176 0.000000
0.435294 0.141176 0.000000
0.447059 0.141176 0.000000
0.462745 0.137255 0.000000
0.478431 0.129412 0.000000
0.494118 0.125490 0.000000
0.509804 0.117647 0.000000
0.525490 0.113725 0.000000
0.541176 0.109804 0.000000
0.556863 0.105882 0.000000
0.572549 0.101961 0.000000
0.588235 0.098039 0.000000
0.600000 0.098039 0.000000
0.615686 0.098039 0.000000
0.627451 0.098039 0.000000
0.639216 0.098039 0.000000
0.650980 0.098039 0.000000
0.000000 0.188235 0.000000
0.000000 0.192157 0.000000
0.000000 0.196078 0.000000
0.000000 0.200000 0.000000
0.000000 0.211765 0.000000
0.070588 0.235294 0.000000
0.156863 0.262745 0.000000
0.223529 0.270588 0.000000
0.270588 0.270588 0.000000
0.301961 0.258824 0.000000
0.329412 0.247059 0.000000
0.352941 0.235294 0.000000
0.376471 0.227451 0.000000
0.396078 0.219608 0.000000
0.415686 0.211765 0.000000
0.435294 0.203922 0.000000
0.447059 0.200000 0.000000
0.462745 0.196078 0.000000
0.470588 0.196078 0.000000
0.490196 0.188235 0.000000
0.505882 0.180392 0.000000
0.521569 0.176471 0.000000
0.537255 0.168627 0.000000
0.552941 0.164706 0.000000
0.568627 0.160784 0.000000
0.584314 0.156863 0.000000
0.600000 0.152941 0.000000
0.611765 0.152941 0.000000
0.623529 0.149020 0.000000
0.639216 0.149020 0.000000
0.650980 0.149020 0.000000
0.662745 0.149020 0.000000
0.674510 0.152941 0.000000
0.000000 0.219608 0.000000
0.000000 0.223529 0.000000
0.000000 0.223529 0.000000
0.000000 0.231373 0.000000
0.007843 0.239216 0.000000
0.070588 0.258824 0.000000
0.145098 0.282353 0.000000
0.211765 0.301961 0.000000
0.266667 0.309804 0.000000
0.309804 0.309804 0.000000
0.341176 0.301961 0.000000
0.368627 0.290196 0.000000
0.392157 0.278431 0.000000
0.411765 0.270588 0.000000
0.435294 0.262745 0.000000
0.450980 0.254902 0.000000
0.470588 0.250980 0.000000
0.482353 0.247059 0.000000
0.498039 0.247059 0.000000
0.513726 0.239216 0.000000
0.529412 0.235294 0.000000
0.549020 0.227451 0.000000
0.564706 0.223529 0.000000
0.580392 0.219608 0.000000
0.592157 0.215686 0.000000
0.607843 0.211765 0.000000
0.623529 0.207843 0.000000
0.635294 0.203922 0.000000
0.647059 0.203922 0.000000
0.658824 0.203922 0.000000
0.674510 0.203922 0.000000
0.682353 0.207843 0.000000
0.694118 0.207843 0.000000
0.000000 0.250980 0.000000
0.000000 0.254902 0.000000
0.000000 0.254902 0.000000
0.000000 0.258824 0.000000
0.011765 0.266667 0.000000
0.062745 0.282353 0.000000
0.129412 0.301961 0.000000
0.196078 0.325490 0.000000
0.258824 0.341176 0.000000
0.309804 0.349020 0.000000
0.349020 0.349020 0.000000
0.380392 0.341176 0.000000
0.403922 0.329412 0.000000
0.427451 0.321569 0.000000
0.450980 0.313726 0.000000
0.470588 0.309804 0.000000
0.486275 0.301961 0.000000
0.501961 0.301961 0.003922
0.517647 0.298039 0.007843
0.537255 0.290196 0.000000
0.552941 0.286275 0.000000
0.568627 0.282353 0.000000
0.588235 0.274510 0.000000
0.603922 0.270588 0.000000
0.615686 0.266667 0.000000
0.631373 0.262745 0.000000
0.643137 0.262745 0.000000
0.658824 0.258824 0.000000
0.670588 0.258824 0.000000
0.678431 0.262745 0.000000
0.690196 0.262745 0.000000
0.698039 0.266667 0.000000
0.705882 0.270588 0.000000
0.000000 0.278431 0.000000
0.000000 0.282353 0.000000
0.000000 0.286275 0.000000
0.000000 0.290196 0.000000
0.011765 0.298039 0.000000
0.058824 0.309804 0.000000
0.117647 0.325490 0.000000
0.184314 0.345098 0.000000
0.247059 0.368627 0.000000
0.301961 0.380392 0.000000
0.349020 0.388235 0.000000
0.388235 0.388235 0.000000
0.415686 0.380392 0.000000
0.443137 0.372549 0.000000
0.462745 0.364706 0.000000
0.482353 0.356863 0.003922
0.501961 0.352941 0.011765
0.517647 0.349020 0.023529
0.537255 0.345098 0.023529
0.556863 0.337255 0.015686
0.572549 0.333333 0.011765
0.592157 0.329412 0.007843
0.607843 0.325490 0.003922
0.623529 0.321569 0.000000
0.635294 0.317647 0.000000
0.650980 0.317647 0.000000
0.662745 0.317647 0.000000
0.674510 0.317647 0.003922
0.682353 0.317647 0.011765
0.694118 0.321569 0.019608
0.701961 0.325490 0.027451
0.709804 0.329412 0.043137
0.713726 0.337255 0.054902
0.000000 0.309804 0.000000
0.000000 0.313726 0.000000
0.000000 0.317647 0.000000
0.000000 0.321569 0.000000
0.019608 0.325490 0.000000
0.062745 0.333333 0.000000
0.117647 0.349020 0.000000
0.176471 0.368627 0.000000
0.235294 0.392157 0.000000
0.298039 0.407843 0.000000
0.349020 0.423529 0.000000
0.392157 0.427451 0.003922
0.427451 0.427451 0.011765
0.454902 0.419608 0.015686
0.478431 0.411765 0.019608
0.498039 0.407843 0.023529
0.517647 0.400000 0.035294
0.533333 0.396078 0.043137
0.552941 0.392157 0.039216
0.572549 0.384314 0.035294
0.592157 0.380392 0.031373
0.607843 0.376471 0.027451
0.623529 0.376471 0.027451
0.639216 0.372549 0.031373
0.650980 0.372549 0.031373
0.662745 0.372549 0.039216
0.674510 0.372549 0.043137
0.682353 0.376471 0.054902
0.694118 0.380392 0.066667
0.701961 0.384314 0.078431
0.705882 0.388235 0.090196
0.713726 0.392157 0.101961
0.721569 0.400000 0.113725
0.000000 0.337255 0.000000
0.000000 0.341176 0.000000
0.000000 0.345098 0.000000
0.000000 0.349020 0.000000
0.023529 0.356863 0.000000
0.066667 0.364706 0.000000
0.113725 0.376471 0.000000
0.168627 0.392157 0.000000
0.227451 0.411765 0.000000
0.290196 0.435294 0.000000
0.341176 0.450980 0.000000
0.392157 0.458824 0.011765
0.431373 0.462745 0.023529
0.462745 0.462745 0.035294
0.490196 0.458824 0.043137
0.509804 0.450980 0.050980
0.529412 0.447059 0.058824
0.549020 0.443137 0.062745
0.568627 0.435294 0.058824
0.588235 0.431373 0.058824
0.603922 0.427451 0.058824
0.619608 0.427451 0.062745
0.635294 0.423529 0.066667
0.647059 0.423529 0.070588
0.658824 0.423529 0.078431
0.670588 0.427451 0.090196
0.682353 0.427451 0.101961
0.690196 0.431373 0.113725
0.698039 0.435294 0.121569
0.709804 0.439216 0.133333
0.717647 0.443137 0.141176
0.725490 0.447059 0.152941
0.733333 0.450980 0.160784
0.000000 0.368627 0.000000
0.000000 0.372549 0.000000
0.000000 0.376471 0.000000
0.000000 0.380392 0.000000
0.035294 0.384314 0.000000
0.070588 0.392157 0.000000
0.117647 0.403922 0.000000
0.168627 0.415686 0.000000
0.223529 0.435294 0.000000
0.282353 0.454902 0.000000
0.337255 0.474510 0.000000
0.388235 0.490196 0.019608
0.431373 0.498039 0.039216
0.470588 0.501961 0.050980
0.501961 0.501961 0.062745
0.525490 0.494118 0.074510
0.545098 0.490196 0.086275
0.564706 0.486275 0.090196
0.584314 0.482353 0.090196
0.600000 0.478431 0.094118
0.615686 0.474510 0.101961
0.627451 0.474510 0.109804
0.643137 0.474510 0.117647
0.654902 0.474510 0.125490
0.666667 0.474510 0.133333
0.678431 0.474510 0.145098
0.690196 0.478431 0.152941
0.698039 0.478431 0.160784
0.709804 0.482353 0.168627
0.717647 0.486275 0.172549
0.729412 0.486275 0.180392
0.737255 0.490196 0.188235
0.749020 0.494118 0.192157
0.000000 0.396078 0.000000
0.000000 0.400000 0.000000
0.000000 0.403922 0.000000
0.019608 0.407843 0.000000
0.050980 0.411765 0.000000
0.082353 0.419608 0.000000
0.125490 0.427451 0.000000
0.172549 0.443137 0.000000
0.223529 0.458824 0.000000
0.278431 0.478431 0.000000
0.333333 0.498039 0.007843
0.388235 0.513726 0.031373
0.431373 0.525490 0.050980
0.474510 0.533333 0.070588
0.505882 0.537255 0.086275
0.533333 0.533333 0.098039
0.556863 0.533333 0.109804
0.576471 0.529412 0.117647
0.596078 0.525490 0.129412
0.611765 0.521569 0.137255
0.623529 0.517647 0.149020
0.639216 0.517647 0.156863
0.650980 0.517647 0.164706
0.662745 0.517647 0.172549
0.674510 0.517647 0.180392
0.690196 0.517647 0.184314
0.698039 0.521569 0.188235
0.709804 0.521569 0.196078
0.721569 0.525490 0.200000
0.733333 0.525490 0.203922
0.741176 0.529412 0.211765
0.752941 0.533333 0.215686
0.760784 0.537255 0.223529
0.000000 0.427451 0.000000
0.000000 0.431373 0.000000
0.019608 0.435294 0.000000
0.047059 0.439216 0.000000
0.070588 0.443137 0.000000
0.101961 0.447059 0.000000
0.137255 0.454902 0.000000
0.180392 0.466667 0.000000
0.227451 0.482353 0.000000
0.282353 0.498039 0.000000
0.333333 0.517647 0.023529
0.388235 0.537255 0.047059
0.435294 0.549020 0.070588
0.474510 0.560784 0.090196
0.513726 0.564706 0.109804
0.545098 0.568627 0.121569
0.568627 0.568627 0.133333
0.592157 0.568627 0.145098
0.607843 0.564706 0.152941
0.623529 0.560784 0.160784
0.639216 0.556863 0.168627
0.654902 0.556863 0.176471
0.666667 0.556863 0.188235
0.678431 0.556863 0.196078
0.690196 0.556863 0.203922
0.701961 0.556863 0.215686
0.713726 0.560784 0.219608
0.725490 0.560784 0.223529
0.737255 0.560784 0.231373
0.745098 0.564706 0.235294
0.756863 0.568627 0.239216
0.764706 0.568627 0.247059
0.772549 0.572549 0.254902
0.000000 0.454902 0.000000
0.000000 0.458824 0.000000
0.023529 0.462745 0.000000
0.054902 0.466667 0.000000
0.090196 0.470588 0.000000
0.125490 0.478431 0.000000
0.156863 0.482353 0.000000
0.196078 0.494118 0.000000
0.239216 0.505882 0.003922
0.290196 0.521569 0.019608
0.337255 0.541176 0.043137
0.388235 0.556863 0.066667
0.435294 0.572549 0.090196
0.478431 0.584314 0.113725
0.517647 0.592157 0.133333
0.549020 0.600000 0.149020
0.580392 0.603922 0.160784
0.603922 0.603922 0.172549
0.623529 0.600000 0.180392
0.639216 0.600000 0.188235
0.654902 0.596078 0.196078
0.670588 0.596078 0.203922
0.682353 0.596078 0.211765
0.694118 0.592157 0.219608
0.705882 0.596078 0.227451
0.717647 0.596078 0.235294
0.729412 0.596078 0.243137
0.741176 0.600000 0.250980
0.749020 0.600000 0.258824
0.760784 0.603922 0.262745
0.768628 0.603922 0.270588
0.780392 0.607843 0.274510
0.788235 0.611765 0.282353
0.000000 0.482353 0.000000
0.000000 0.486275 0.000000
0.031373 0.490196 0.000000
0.066667 0.494118 0.000000
0.105882 0.498039 0.003922
0.145098 0.501961 0.015686
0.176471 0.509804 0.015686
0.211765 0.517647 0.019608
0.254902 0.529412 0.031373
0.301961 0.545098 0.047059
0.349020 0.560784 0.066667
0.396078 0.576471 0.090196
0.443137 0.596078 0.113725
0.486275 0.607843 0.137255
0.521569 0.619608 0.156863
0.556863 0.623529 0.172549
0.588235 0.631373 0.184314
0.611765 0.631373 0.196078
0.635294 0.635294 0.203922
0.650980 0.631373 0.211765
0.666667 0.631373 0.219608
0.682353 0.631373 0.227451
0.698039 0.627451 0.231373
0.709804 0.627451 0.239216
0.721569 0.627451 0.247059
0.733333 0.627451 0.254902
0.745098 0.631373 0.262745
0.756863 0.631373 0.270588
0.764706 0.631373 0.278431
0.772549 0.635294 0.286275
0.784314 0.639216 0.294118
0.792157 0.643137 0.301961
0.800000 0.643137 0.309804
0.000000 0.509804 0.000000
0.019608 0.513726 0.000000
0.058824 0.517647 0.011765
0.098039 0.521569 0.027451
0.137255 0.525490 0.043137
0.168627 0.529412 0.047059
0.200000 0.537255 0.047059
0.231373 0.545098 0.050980
0.270588 0.556863 0.058824
0.313726 0.568627 0.074510
0.356863 0.584314 0.094118
0.403922 0.600000 0.113725
0.447059 0.615686 0.137255
0.490196 0.627451 0.156863
0.529412 0.639216 0.172549
0.564706 0.650980 0.188235
0.592157 0.654902 0.203922
0.623529 0.662745 0.215686
0.643137 0.662745 0.227451
0.662745 0.662745 0.235294
0.682353 0.662745 0.243137
0.698039 0.662745 0.247059
0.709804 0.662745 0.254902
0.725490 0.662745 0.262745
0.737255 0.662745 0.270588
0.749020 0.662745 0.278431
0.760784 0.662745 0.282353
0.768628 0.662745 0.290196
0.780392 0.666667 0.298039
0.788235 0.666667 0.305882
0.796079 0.670588 0.313726
0.807843 0.670588 0.321569
0.815686 0.674510 0.325490
0.027451 0.537255 0.027451
0.062745 0.541176 0.043137
0.101961 0.545098 0.058824
0.137255 0.549020 0.074510
0.168627 0.552941 0.078431
0.192157 0.556863 0.074510
0.219608 0.560784 0.074510
0.254902 0.568627 0.078431
0.290196 0.580392 0.086275
0.325490 0.592157 0.098039
0.368627 0.603922 0.113725
0.411765 0.619608 0.133333
0.454902 0.635294 0.152941
0.498039 0.647059 0.172549
0.533333 0.662745 0.192157
0.568627 0.670588 0.207843
0.600000 0.682353 0.223529
0.627451 0.686275 0.235294
0.654902 0.690196 0.247059
0.674510 0.694118 0.254902
0.694118 0.694118 0.262745
0.709804 0.694118 0.270588
0.725490 0.694118 0.278431
0.737255 0.694118 0.282353
0.749020 0.694118 0.290196
0.760784 0.694118 0.298039
0.772549 0.694118 0.305882
0.784314 0.694118 0.309804
0.792157 0.694118 0.317647
0.803922 0.698039 0.325490
0.811765 0.698039 0.329412
0.819608 0.701961 0.337255
0.827451 0.705882 0.345098
0.078431 0.564706 0.078431
0.109804 0.564706 0.090196
0.145098 0.572549 0.105882
0.172549 0.572549 0.113725
0.192157 0.576471 0.105882
0.211765 0.580392 0.101961
0.243137 0.588235 0.101961
0.270588 0.596078 0.105882
0.305882 0.603922 0.109804
0.341176 0.611765 0.121569
0.380392 0.623529 0.137255
0.419608 0.639216 0.152941
0.462745 0.654902 0.172549
0.501961 0.670588 0.188235
0.541176 0.682353 0.207843
0.576471 0.694118 0.223529
0.607843 0.701961 0.239216
0.635294 0.709804 0.254902
0.662745 0.713726 0.266667
0.686275 0.717647 0.274510
0.705882 0.721569 0.286275
0.721569 0.721569 0.294118
0.737255 0.721569 0.298039
0.752941 0.721569 0.305882
0.764706 0.721569 0.313726
0.776471 0.721569 0.317647
0.788235 0.721569 0.321569
0.796079 0.725490 0.329412
0.807843 0.725490 0.337255
0.815686 0.725490 0.341176
0.823529 0.729412 0.349020
0.835294 0.729412 0.356863
0.843137 0.733333 0.360784
0.117647 0.588235 0.117647
0.145098 0.592157 0.129412
0.176471 0.596078 0.137255
0.196078 0.600000 0.137255
0.215686 0.603922 0.133333
0.235294 0.607843 0.129412
0.262745 0.611765 0.125490
0.290196 0.619608 0.129412
0.321569 0.623529 0.137255
0.356863 0.635294 0.145098
0.392157 0.647059 0.156863
0.431373 0.658824 0.172549
0.470588 0.674510 0.188235
0.509804 0.690196 0.207843
0.549020 0.701961 0.223529
0.584314 0.713726 0.243137
0.615686 0.725490 0.254902
0.643137 0.733333 0.270588
0.670588 0.737255 0.282353
0.694118 0.745098 0.294118
0.713726 0.745098 0.301961
0.733333 0.749020 0.313726
0.749020 0.749020 0.317647
0.764706 0.749020 0.325490
0.776471 0.749020 0.333333
0.788235 0.749020 0.337255
0.800000 0.752941 0.345098
0.811765 0.752941 0.349020
0.819608 0.752941 0.356863
0.831373 0.752941 0.360784
0.839216 0.756863 0.368627
0.847059 0.756863 0.372549
0.854902 0.760784 0.380392
0.145098 0.611765 0.145098
0.172549 0.615686 0.152941
0.200000 0.619608 0.164706
0.219608 0.623529 0.164706
0.235294 0.627451 0.156863
0.258824 0.631373 0.152941
0.282353 0.635294 0.152941
0.309804 0.639216 0.152941
0.337255 0.647059 0.156863
0.372549 0.658824 0.164706
0.407843 0.666667 0.176471
0.443137 0.678431 0.192157
0.482353 0.694118 0.207843
0.521569 0.705882 0.223529
0.556863 0.721569 0.243137
0.592157 0.733333 0.258824
0.623529 0.745098 0.274510
0.650980 0.752941 0.286275
0.678431 0.760784 0.301961
0.701961 0.764706 0.313726
0.725490 0.768628 0.321569
0.745098 0.772549 0.329412
0.760784 0.776471 0.337255
0.776471 0.776471 0.345098
0.788235 0.776471 0.352941
0.800000 0.776471 0.356863
0.811765 0.776471 0.360784
0.823529 0.776471 0.368627
0.831373 0.780392 0.372549
0.843137 0.780392 0.380392
0.850980 0.780392 0.384314
0.858824 0.784314 0.392157
0.866667 0.784314 0.396078
0.172549 0.635294 0.172549
0.196078 0.639216 0.180392
0.223529 0.643137 0.188235
0.243137 0.647059 0.188235
0.258824 0.650980 0.180392
0.278431 0.654902 0.176471
0.301961 0.658824 0.176471
0.325490 0.662745 0.176471
0.356863 0.670588 0.180392
0.388235 0.678431 0.188235
0.419608 0.690196 0.196078
0.454902 0.698039 0.211765
0.494118 0.713726 0.223529
0.529412 0.725490 0.243137
0.564706 0.741176 0.258824
0.600000 0.752941 0.274510
0.631373 0.760784 0.290196
0.662745 0.772549 0.305882
0.686275 0.780392 0.317647
0.713726 0.784314 0.329412
0.733333 0.792157 0.337255
0.752941 0.796079 0.349020
0.772549 0.796079 0.356863
0.788235 0.800000 0.364706
0.800000 0.800000 0.368627
0.815686 0.803922 0.376471
0.823529 0.803922 0.380392
0.835294 0.803922 0.388235
0.847059 0.803922 0.392157
0.854902 0.803922 0.396078
0.862745 0.807843 0.403922
0.870588 0.807843 0.407843
0.878431 0.811765 0.411765
0.196078 0.658824 0.196078
0.219608 0.662745 0.203922
0.247059 0.666667 0.211765
0.262745 0.670588 0.211765
0.278431 0.674510 0.203922
0.298039 0.674510 0.200000
0.321569 0.682353 0.200000
0.345098 0.686275 0.200000
0.372549 0.690196 0.203922
0.403922 0.698039 0.211765
0.435294 0.709804 0.219608
0.470588 0.717647 0.231373
0.505882 0.729412 0.243137
0.541176 0.745098 0.258824
0.576471 0.756863 0.274510
0.607843 0.768628 0.290196
0.639216 0.780392 0.305882
0.670588 0.792157 0.317647
0.698039 0.800000 0.333333
0.721569 0.803922 0.345098
0.741176 0.811765 0.352941
0.764706 0.815686 0.364706
0.780392 0.819608 0.372549
0.796079 0.819608 0.380392
0.811765 0.823529 0.388235
0.823529 0.823529 0.392157
0.835294 0.827451 0.400000
0.847059 0.827451 0.403922
0.858824 0.827451 0.407843
0.866667 0.827451 0.415686
0.874510 0.831373 0.419608
0.882353 0.831373 0.423529
0.890196 0.831373 0.431373
0.223529 0.682353 0.223529
0.243137 0.686275 0.227451
0.266667 0.690196 0.235294
0.286275 0.690196 0.235294
0.301961 0.694118 0.227451
0.317647 0.698039 0.223529
0.341176 0.701961 0.223529
0.364706 0.705882 0.223529
0.392157 0.713726 0.223529
0.419608 0.721569 0.231373
0.450980 0.729412 0.239216
0.482353 0.737255 0.250980
0.517647 0.749020 0.262745
0.549020 0.760784 0.274510
0.584314 0.776471 0.290196
0.615686 0.788235 0.305882
0.647059 0.796079 0.321569
0.678431 0.807843 0.333333
0.705882 0.815686 0.349020
0.729412 0.823529 0.360784
0.752941 0.831373 0.368627
0.772549 0.835294 0.380392
0.792157 0.839216 0.388235
0.807843 0.843137 0.396078
0.823529 0.843137 0.403922
0.835294 0.847059 0.407843
0.847059 0.847059 0.415686
0.858824 0.847059 0.419608
0.870588 0.850980 0.427451
