public/cube/Linny.cube
TITLE "Generated by Resolve"
LUT_3D_SIZE 5
0.000000 0.000000 0.000000
0.066667 0.000000 0.000000
0.074510 0.000000 0.000000
0.054902 0.000000 0.000000
0.074510 0.000000 0.000000
0.000000 0.160784 0.000000
0.196078 0.196078 0.000000
0.305882 0.047059 0.000000
0.317647 0.000000 0.000000
0.349020 0.000000 0.000000
0.000000 0.396078 0.000000
0.207843 0.529412 0.000000
0.482353 0.482353 0.000000
0.623529 0.403922 0.000000
0.717647 0.376471 0.000000
0.000000 0.682353 0.007843
0.266667 0.760784 0.066667
0.537255 0.752941 0.062745
0.701961 0.701961 0.015686
0.800000 0.674510 0.000000
0.050980 0.894118 0.078431
0.325490 0.937255 0.137255
0.592157 0.917647 0.133333
0.752941 0.870588 0.086275
0.839216 0.835294 0.050980
0.000000 0.000000 0.011765
0.015686 0.000000 0.007843
0.090196 0.000000 0.000000
0.090196 0.000000 0.000000
0.109804 0.000000 0.000000
0.000000 0.109804 0.109804
0.270588 0.270588 0.270588
0.458824 0.074510 0.078431
0.458824 0.000000 0.000000
0.490196 0.000000 0.000000
0.000000 0.415686 0.117647
0.168627 0.568627 0.180392
0.549020 0.545098 0.164706
0.701961 0.450980 0.145098
0.772549 0.415686 0.145098
0.000000 0.662745 0.180392
0.239216 0.772549 0.258824
0.549020 0.792157 0.258824
0.741176 0.741176 0.247059
0.831373 0.709804 0.247059
0.015686 0.854902 0.258824
0.329412 0.909804 0.349020
0.576471 0.874510 0.349020
0.729412 0.827451 0.333333
0.807843 0.803922 0.325490
0.000000 0.000000 0.000000
0.000000 0.000000 0.007843
0.000000 0.000000 0.000000
0.031373 0.000000 0.000000
0.078431 0.000000 0.000000
0.000000 0.000000 0.121569
0.000000 0.000000 0.333333
0.349020 0.000000 0.337255
0.454902 0.000000 0.203922
0.513726 0.000000 0.164706
0.000000 0.254902 0.250980
0.047059 0.447059 0.443137
0.611765 0.611765 0.611765
0.772549 0.462745 0.466667
0.839216 0.415686 0.423529
0.000000 0.549020 0.333333
0.145098 0.701961 0.462745
0.580392 0.760784 0.584314
0.760784 0.760784 0.615686
0.819608 0.733333 0.588235
0.000000 0.745098 0.415686
0.258824 0.823529 0.525490
0.627451 0.839216 0.635294
0.788235 0.850980 0.686275
0.835294 0.835294 0.670588
0.000000 0.000000 0.000000
0.000000 0.000000 0.000000
0.000000 0.000000 0.000000
0.000000 0.000000 0.000000
0.000000 0.000000 0.000000
0.000000 0.000000 0.062745
0.000000 0.000000 0.235294
0.129412 0.000000 0.345098
0.309804 0.000000 0.294118
0.400000 0.000000 0.266667
0.000000 0.086275 0.254902
0.000000 0.247059 0.482353
0.380392 0.380392 0.698039
0.686275 0.392157 0.678431
0.788235 0.376471 0.631373
0.000000 0.407843 0.400000
0.039216 0.568627 0.560784
0.552941 0.721569 0.721569
0.874510 0.874510 0.874510
0.874510 0.823529 0.827451
0.000000 0.619608 0.498039
0.172549 0.729412 0.619608
0.643137 0.827451 0.764706
0.898039 0.925490 0.898039
0.941177 0.941177 0.921569
0.000000 0.000000 0.000000
0.000000 0.000000 0.000000
0.000000 0.000000 0.000000
0.000000 0.000000 0.000000
0.000000 0.000000 0.000000
0.000000 0.000000 0.023529
0.000000 0.000000 0.200000
0.035294 0.000000 0.317647
0.215686 0.000000 0.309804
0.321569 0.000000 0.301961
0.000000 0.007843 0.235294
0.000000 0.137255 0.470588
0.262745 0.262745 0.686275
0.584314 0.298039 0.729412
0.717647 0.317647 0.701961
0.000000 0.325490 0.431373
0.000000 0.474510 0.584314
0.470588 0.658824 0.756863
0.792157 0.792157 0.847059
0.870588 0.827451 0.870588
0.000000 0.541176 0.533333
0.105882 0.658824 0.654902
0.600000 0.792157 0.792157
0.901961 0.925490 0.925490
1.000000 1.000000 1.000000
