public/cube/Linny_v2.cube
TITLE "Generated by Resolve"
LUT_3D_SIZE 5
0.000000 0.000000 0.000000
0.125490 0.000000 0.000000
0.231373 0.000000 0.000000
0.329412 0.000000 0.000000
0.462745 0.000000 0.000000
0.000000 0.188235 0.000000
0.270588 0.270588 0.000000
0.447059 0.200000 0.000000
0.568627 0.160784 0.000000
0.674510 0.152941 0.000000
0.000000 0.427451 0.000000
0.227451 0.482353 0.000000
0.568627 0.568627 0.133333
0.690196 0.556863 0.203922
0.772549 0.572549 0.254902
0.172549 0.635294 0.172549
0.356863 0.670588 0.180392
0.631373 0.760784 0.290196
0.800000 0.800000 0.368627
0.878431 0.811765 0.411765
0.356863 0.803922 0.356863
0.490196 0.823529 0.341176
0.705882 0.890196 0.407843
0.874510 0.941177 0.486275
0.956863 0.956863 0.529412
0.000000 0.000000 0.145098
0.133333 0.000000 0.133333
0.270588 0.000000 0.058824
0.372549 0.000000 0.050980
0.501961 0.000000 0.047059
0.000000 0.192157 0.192157
0.270588 0.270588 0.270588
0.470588 0.121569 0.121569
0.568627 0.133333 0.133333
0.666667 0.149020 0.149020
0.000000 0.454902 0.203922
0.156863 0.505882 0.156863
0.580392 0.580392 0.243137
0.717647 0.537255 0.294118
0.792157 0.541176 0.341176
0.168627 0.662745 0.345098
0.325490 0.701961 0.325490
0.576471 0.749020 0.349020
0.807843 0.807843 0.447059
0.890196 0.803922 0.482353
0.337255 0.823529 0.486275
0.466667 0.850980 0.466667
0.643137 0.874510 0.458824
0.858824 0.941177 0.545098
0.956863 0.956863 0.592157
0.000000 0.000000 0.219608
0.066667 0.000000 0.270588
0.254902 0.000000 0.254902
0.384314 0.000000 0.243137
0.525490 0.000000 0.266667
0.000000 0.149020 0.384314
0.160784 0.160784 0.505882
0.474510 0.121569 0.474510
0.615686 0.129412 0.403922
0.690196 0.180392 0.407843
0.000000 0.443137 0.443137
0.164706 0.505882 0.505882
0.576471 0.576471 0.576471
0.741176 0.450980 0.450980
0.811765 0.474510 0.474510
0.180392 0.666667 0.529412
0.313726 0.721569 0.545098
0.505882 0.756863 0.505882
0.811765 0.811765 0.572549
0.917647 0.776471 0.549020
0.337255 0.831373 0.639216
0.450980 0.870588 0.635294
0.549020 0.890196 0.549020
0.796079 0.925490 0.588235
0.960784 0.960784 0.635294
0.000000 0.000000 0.266667
0.039216 0.000000 0.337255
0.227451 0.000000 0.360784
0.388235 0.000000 0.388235
0.529412 0.000000 0.427451
0.000000 0.125490 0.482353
0.149020 0.149020 0.584314
0.411765 0.137255 0.619608
0.588235 0.152941 0.588235
0.690196 0.192157 0.584314
0.000000 0.415686 0.596078
0.211765 0.474510 0.670588
0.478431 0.478431 0.784314
0.741176 0.454902 0.741176
0.850980 0.450980 0.698039
0.219608 0.658824 0.658824
0.341176 0.709804 0.709804
0.513726 0.760784 0.760784
0.807843 0.807843 0.807843
0.898039 0.756863 0.756863
0.360784 0.823529 0.756863
0.462745 0.866667 0.780392
0.552941 0.901961 0.768628
0.796079 0.921569 0.796079
0.952941 0.952941 0.831373
0.000000 0.000000 0.309804
0.039216 0.000000 0.380392
0.223529 0.000000 0.435294
0.396078 0.000000 0.490196
0.537255 0.000000 0.537255
0.000000 0.109804 0.576471
0.145098 0.145098 0.647059
0.392157 0.160784 0.678431
0.572549 0.160784 0.682353
0.682353 0.207843 0.682353
0.000000 0.403922 0.690196
0.243137 0.466667 0.741176
0.482353 0.482353 0.823529
0.701961 0.458824 0.854902
0.823529 0.486275 0.823529
0.227451 0.658824 0.733333
0.368627 0.701961 0.792157
0.494118 0.733333 0.882353
0.764706 0.764706 0.909804
0.898039 0.760784 0.898039
0.388235 0.823529 0.823529
0.478431 0.858824 0.858824
0.552941 0.890196 0.890196
0.800000 0.925490 0.925490
0.949020 0.949020 0.949020
