public/cube/Linny.cube
TITLE "Generated by Resolve"
LUT_3D_SIZE 33
0.000000 0.000000 0.000000
0.007843 0.000000 0.000000
0.015686 0.000000 0.000000
0.027451 0.000000 0.000000
0.035294 0.000000 0.000000
0.047059 0.000000 0.000000
0.054902 0.000000 0.000000
0.062745 0.000000 0.000000
0.066667 0.000000 0.000000
0.074510 0.000000 0.000000
0.074510 0.000000 0.000000
0.078431 0.000000 0.000000
0.078431 0.000000 0.000000
0.078431 0.000000 0.000000
0.078431 0.000000 0.000000
0.074510 0.000000 0.000000
0.074510 0.000000 0.000000
0.070588 0.000000 0.000000
0.066667 0.000000 0.000000
0.062745 0.000000 0.000000
0.062745 0.000000 0.000000
0.058824 0.000000 0.000000
0.054902 0.000000 0.000000
0.054902 0.000000 0.000000
0.054902 0.000000 0.000000
0.054902 0.000000 0.000000
0.054902 0.000000 0.000000
0.054902 0.000000 0.000000
0.058824 0.000000 0.000000
0.062745 0.000000 0.000000
0.066667 0.000000 0.000000
0.070588 0.000000 0.000000
0.074510 0.000000 0.000000
0.000000 0.011765 0.000000
0.011765 0.011765 0.000000
0.023529 0.000000 0.000000
0.035294 0.000000 0.000000
0.047059 0.000000 0.000000
0.058824 0.000000 0.000000
0.070588 0.000000 0.000000
0.078431 0.000000 0.000000
0.086275 0.000000 0.000000
0.090196 0.000000 0.000000
0.094118 0.000000 0.000000
0.098039 0.000000 0.000000
0.098039 0.000000 0.000000
0.101961 0.000000 0.000000
0.101961 0.000000 0.000000
0.098039 0.000000 0.000000
0.098039 0.000000 0.000000
0.098039 0.000000 0.000000
0.094118 0.000000 0.000000
0.090196 0.000000 0.000000
0.090196 0.000000 0.000000
0.086275 0.000000 0.000000
0.082353 0.000000 0.000000
0.082353 0.000000 0.000000
0.082353 0.000000 0.000000
0.082353 0.000000 0.000000
0.082353 0.000000 0.000000
0.086275 0.000000 0.000000
0.086275 0.000000 0.000000
0.090196 0.000000 0.000000
0.094118 0.000000 0.000000
0.101961 0.000000 0.000000
0.105882 0.000000 0.000000
0.000000 0.027451 0.000000
0.003922 0.031373 0.000000
0.027451 0.027451 0.000000
0.047059 0.015686 0.000000
0.058824 0.000000 0.000000
0.074510 0.000000 0.000000
0.086275 0.000000 0.000000
0.094118 0.000000 0.000000
0.105882 0.000000 0.000000
0.109804 0.000000 0.000000
0.117647 0.000000 0.000000
0.121569 0.000000 0.000000
0.125490 0.000000 0.000000
0.125490 0.000000 0.000000
0.125490 0.000000 0.000000
0.129412 0.000000 0.000000
0.125490 0.000000 0.000000
0.125490 0.000000 0.000000
0.125490 0.000000 0.000000
0.121569 0.000000 0.000000
0.121569 0.000000 0.000000
0.117647 0.000000 0.000000
0.117647 0.000000 0.000000
0.117647 0.000000 0.000000
0.117647 0.000000 0.000000
0.117647 0.000000 0.000000
0.117647 0.000000 0.000000
0.121569 0.000000 0.000000
0.121569 0.000000 0.000000
0.125490 0.000000 0.000000
0.129412 0.000000 0.000000
0.137255 0.000000 0.000000
0.141176 0.000000 0.000000
0.000000 0.043137 0.000000
0.000000 0.050980 0.000000
0.023529 0.054902 0.000000
0.047059 0.047059 0.000000
0.070588 0.035294 0.000000
0.086275 0.015686 0.000000
0.098039 0.000000 0.000000
0.109804 0.000000 0.000000
0.121569 0.000000 0.000000
0.133333 0.000000 0.000000
0.141176 0.000000 0.000000
0.145098 0.000000 0.000000
0.149020 0.000000 0.000000
0.152941 0.000000 0.000000
0.156863 0.000000 0.000000
0.156863 0.000000 0.000000
0.156863 0.000000 0.000000
0.156863 0.000000 0.000000
0.156863 0.000000 0.000000
0.152941 0.000000 0.000000
0.152941 0.000000 0.000000
0.152941 0.000000 0.000000
0.152941 0.000000 0.000000
0.152941 0.000000 0.000000
0.149020 0.000000 0.000000
0.152941 0.000000 0.000000
0.152941 0.000000 0.000000
0.156863 0.000000 0.000000
0.156863 0.000000 0.000000
0.160784 0.000000 0.000000
0.164706 0.000000 0.000000
0.172549 0.000000 0.000000
0.176471 0.000000 0.000000
0.000000 0.062745 0.000000
0.000000 0.070588 0.000000
0.011765 0.078431 0.000000
0.043137 0.078431 0.000000
0.070588 0.070588 0.000000
0.098039 0.058824 0.000000
0.117647 0.039216 0.000000
0.129412 0.019608 0.000000
0.141176 0.000000 0.000000
0.149020 0.000000 0.000000
0.160784 0.000000 0.000000
0.168627 0.000000 0.000000
0.172549 0.000000 0.000000
0.176471 0.000000 0.000000
0.180392 0.000000 0.000000
0.184314 0.000000 0.000000
0.184314 0.000000 0.000000
0.188235 0.000000 0.000000
0.188235 0.000000 0.000000
0.188235 0.000000 0.000000
0.188235 0.000000 0.000000
0.188235 0.000000 0.000000
0.184314 0.000000 0.000000
0.184314 0.000000 0.000000
0.188235 0.000000 0.000000
0.188235 0.000000 0.000000
0.188235 0.000000 0.000000
0.192157 0.000000 0.000000
0.196078 0.000000 0.000000
0.196078 0.000000 0.000000
0.203922 0.000000 0.000000
0.207843 0.000000 0.000000
0.211765 0.000000 0.000000
0.000000 0.086275 0.000000
0.000000 0.094118 0.000000
0.000000 0.105882 0.000000
0.031373 0.109804 0.000000
0.066667 0.105882 0.000000
0.098039 0.098039 0.000000
0.125490 0.082353 0.000000
0.149020 0.062745 0.000000
0.160784 0.043137 0.000000
0.172549 0.023529 0.000000
0.180392 0.000000 0.000000
0.188235 0.000000 0.000000
0.196078 0.000000 0.000000
0.203922 0.000000 0.000000
0.207843 0.000000 0.000000
0.211765 0.000000 0.000000
0.215686 0.000000 0.000000
0.215686 0.000000 0.000000
0.215686 0.000000 0.000000
0.219608 0.000000 0.000000
0.219608 0.000000 0.000000
0.219608 0.000000 0.000000
0.219608 0.000000 0.000000
0.219608 0.000000 0.000000
0.219608 0.000000 0.000000
0.223529 0.000000 0.000000
0.223529 0.000000 0.000000
0.227451 0.000000 0.000000
0.231373 0.000000 0.000000
0.235294 0.000000 0.000000
0.239216 0.000000 0.000000
0.243137 0.000000 0.000000
0.250980 0.000000 0.000000
0.000000 0.109804 0.000000
0.000000 0.121569 0.000000
0.000000 0.133333 0.000000
0.019608 0.141176 0.000000
0.058824 0.145098 0.000000
0.094118 0.141176 0.000000
0.129412 0.129412 0.000000
0.156863 0.113725 0.000000
0.180392 0.094118 0.000000
0.200000 0.074510 0.000000
0.211765 0.054902 0.000000
0.219608 0.031373 0.000000
0.223529 0.011765 0.000000
0.223529 0.000000 0.000000
0.231373 0.000000 0.000000
0.235294 0.000000 0.000000
0.243137 0.000000 0.000000
0.243137 0.000000 0.000000
0.247059 0.000000 0.000000
0.250980 0.000000 0.000000
0.250980 0.000000 0.000000
0.250980 0.000000 0.000000
0.254902 0.000000 0.000000
0.254902 0.000000 0.000000
0.254902 0.000000 0.000000
0.258824 0.000000 0.000000
0.258824 0.000000 0.000000
0.262745 0.000000 0.000000
0.266667 0.000000 0.000000
0.270588 0.000000 0.000000
0.274510 0.000000 0.000000
0.278431 0.000000 0.000000
0.286275 0.000000 0.000000
0.000000 0.133333 0.000000
0.000000 0.145098 0.000000
0.000000 0.160784 0.000000
0.007843 0.172549 0.000000
0.047059 0.180392 0.000000
0.086275 0.180392 0.000000
0.125490 0.172549 0.000000
0.160784 0.160784 0.000000
0.192157 0.145098 0.000000
0.215686 0.125490 0.000000
0.235294 0.105882 0.000000
0.247059 0.086275 0.000000
0.254902 0.066667 0.000000
0.262745 0.047059 0.000000
0.262745 0.027451 0.000000
0.262745 0.011765 0.000000
0.266667 0.000000 0.000000
0.270588 0.000000 0.000000
0.274510 0.000000 0.000000
0.278431 0.000000 0.000000
0.278431 0.000000 0.000000
0.282353 0.000000 0.000000
0.282353 0.000000 0.000000
0.286275 0.000000 0.000000
0.286275 0.000000 0.000000
0.290196 0.000000 0.000000
0.294118 0.000000 0.000000
0.294118 0.000000 0.000000
0.298039 0.000000 0.000000
0.301961 0.000000 0.000000
0.309804 0.000000 0.000000
0.313726 0.000000 0.000000
0.317647 0.000000 0.000000
0.000000 0.160784 0.000000
0.000000 0.172549 0.000000
0.000000 0.192157 0.000000
0.000000 0.203922 0.000000
0.035294 0.215686 0.000000
0.078431 0.219608 0.000000
0.121569 0.215686 0.000000
0.160784 0.207843 0.000000
0.196078 0.196078 0.000000
0.227451 0.180392 0.000000
0.254902 0.160784 0.000000
0.270588 0.141176 0.000000
0.286275 0.121569 0.000000
0.294118 0.101961 0.000000
0.301961 0.082353 0.000000
0.305882 0.062745 0.000000
0.305882 0.047059 0.000000
0.305882 0.031373 0.000000
0.305882 0.015686 0.000000
0.305882 0.003922 0.000000
0.305882 0.000000 0.000000
0.309804 0.000000 0.000000
0.313726 0.000000 0.000000
0.313726 0.000000 0.000000
0.317647 0.000000 0.000000
0.321569 0.000000 0.000000
0.321569 0.000000 0.000000
0.325490 0.000000 0.000000
0.329412 0.000000 0.000000
0.333333 0.000000 0.000000
0.337255 0.000000 0.000000
0.345098 0.000000 0.000000
0.349020 0.000000 0.000000
0.000000 0.188235 0.000000
0.000000 0.203922 0.000000
0.000000 0.219608 0.000000
0.000000 0.235294 0.000000
0.027451 0.250980 0.000000
0.066667 0.258824 0.000000
0.113725 0.258824 0.000000
0.156863 0.254902 0.000000
0.196078 0.247059 0.000000
0.235294 0.231373 0.000000
0.266667 0.215686 0.000000
0.290196 0.196078 0.000000
0.309804 0.180392 0.000000
0.325490 0.160784 0.000000
0.333333 0.141176 0.000000
0.341176 0.121569 0.000000
0.345098 0.105882 0.000000
0.349020 0.086275 0.000000
0.349020 0.070588 0.000000
0.349020 0.058824 0.000000
0.349020 0.047059 0.000000
0.349020 0.035294 0.000000
0.349020 0.023529 0.000000
0.349020 0.015686 0.000000
0.349020 0.007843 0.000000
0.352941 0.003922 0.000000
0.352941 0.000000 0.000000
0.356863 0.000000 0.000000
0.360784 0.000000 0.000000
0.364706 0.000000 0.000000
0.368627 0.000000 0.000000
0.376471 0.000000 0.000000
0.384314 0.000000 0.000000
0.000000 0.215686 0.000000
0.000000 0.231373 0.000000
0.000000 0.250980 0.000000
0.000000 0.270588 0.000000
0.019608 0.282353 0.000000
0.062745 0.294118 0.000000
0.105882 0.301961 0.000000
0.152941 0.298039 0.000000
0.196078 0.294118 0.000000
0.235294 0.282353 0.000000
0.270588 0.270588 0.000000
0.301961 0.254902 0.000000
0.325490 0.235294 0.000000
0.345098 0.219608 0.000000
0.360784 0.200000 0.000000
0.372549 0.180392 0.000000
0.380392 0.164706 0.000000
0.388235 0.149020 0.000000
0.392157 0.133333 0.000000
0.392157 0.117647 0.000000
0.396078 0.105882 0.000000
0.396078 0.094118 0.000000
0.396078 0.082353 0.000000
0.396078 0.074510 0.000000
0.400000 0.066667 0.000000
0.400000 0.058824 0.000000
0.403922 0.050980 0.000000
0.407843 0.047059 0.000000
0.411765 0.047059 0.000000
0.415686 0.043137 0.000000
0.423529 0.043137 0.000000
0.431373 0.043137 0.000000
0.439216 0.047059 0.000000
0.000000 0.243137 0.000000
0.000000 0.262745 0.000000
0.000000 0.282353 0.000000
0.000000 0.301961 0.000000
0.015686 0.317647 0.000000
0.058824 0.329412 0.000000
0.101961 0.337255 0.000000
0.149020 0.341176 0.000000
0.192157 0.337255 0.000000
0.235294 0.329412 0.000000
0.274510 0.321569 0.000000
0.309804 0.305882 0.000000
0.337255 0.290196 0.000000
0.364706 0.274510 0.000000
0.384314 0.258824 0.000000
0.400000 0.243137 0.000000
0.411765 0.223529 0.000000
0.423529 0.207843 0.000000
0.427451 0.192157 0.000000
0.435294 0.176471 0.000000
0.439216 0.164706 0.000000
0.439216 0.152941 0.000000
0.443137 0.141176 0.000000
0.447059 0.133333 0.000000
0.450980 0.121569 0.000000
0.454902 0.117647 0.000000
0.458824 0.109804 0.000000
0.462745 0.105882 0.000000
0.466667 0.101961 0.000000
0.474510 0.101961 0.000000
0.482353 0.101961 0.000000
0.490196 0.101961 0.000000
0.498039 0.105882 0.000000
0.000000 0.274510 0.000000
0.000000 0.290196 0.000000
0.000000 0.313726 0.000000
0.000000 0.333333 0.000000
0.015686 0.352941 0.000000
0.054902 0.368627 0.000000
0.101961 0.376471 0.000000
0.145098 0.380392 0.000000
0.192157 0.380392 0.000000
0.235294 0.376471 0.000000
0.278431 0.368627 0.000000
0.313726 0.356863 0.000000
0.345098 0.345098 0.000000
0.372549 0.329412 0.000000
0.400000 0.313726 0.000000
0.419608 0.298039 0.000000
0.435294 0.282353 0.000000
0.447059 0.266667 0.000000
0.458824 0.250980 0.000000
0.470588 0.239216 0.000000
0.478431 0.227451 0.000000
0.482353 0.211765 0.000000
0.490196 0.203922 0.000000
0.494118 0.192157 0.000000
0.498039 0.184314 0.000000
0.501961 0.176471 0.000000
0.509804 0.172549 0.000000
0.513726 0.164706 0.000000
0.517647 0.164706 0.000000
0.521569 0.160784 0.000000
0.533333 0.160784 0.000000
0.545098 0.160784 0.000000
0.556863 0.160784 0.000000
0.000000 0.301961 0.000000
0.000000 0.321569 0.000000
0.000000 0.345098 0.000000
0.000000 0.368627 0.000000
0.015686 0.388235 0.000000
0.058824 0.403922 0.000000
0.101961 0.411765 0.000000
0.149020 0.419608 0.000000
0.192157 0.419608 0.000000
0.235294 0.419608 0.000000
0.278431 0.411765 0.000000
0.313726 0.403922 0.000000
0.349020 0.392157 0.000000
0.380392 0.380392 0.000000
0.407843 0.364706 0.000000
0.431373 0.352941 0.000000
0.450980 0.337255 0.000000
0.470588 0.321569 0.000000
0.482353 0.309804 0.000000
0.498039 0.298039 0.000000
0.509804 0.286275 0.000000
0.517647 0.274510 0.000000
0.525490 0.262745 0.000000
0.529412 0.250980 0.000000
0.537255 0.243137 0.000000
0.541176 0.239216 0.000000
0.552941 0.231373 0.000000
0.560784 0.227451 0.000000
0.572549 0.223529 0.000000
0.580392 0.219608 0.000000
0.592157 0.219608 0.000000
0.603922 0.219608 0.000000
0.615686 0.219608 0.000000
0.000000 0.333333 0.000000
0.000000 0.352941 0.000000
0.000000 0.376471 0.000000
0.000000 0.400000 0.000000
0.023529 0.419608 0.000000
0.062745 0.435294 0.000000
0.105882 0.447059 0.000000
0.152941 0.454902 0.000000
0.196078 0.458824 0.000000
0.239216 0.458824 0.000000
0.282353 0.454902 0.000000
0.317647 0.447059 0.000000
0.356863 0.439216 0.000000
0.388235 0.427451 0.000000
0.415686 0.415686 0.000000
0.443137 0.400000 0.000000
0.466667 0.388235 0.000000
0.486275 0.376471 0.000000
0.501961 0.364706 0.000000
0.517647 0.349020 0.000000
0.529412 0.337255 0.000000
0.541176 0.329412 0.000000
0.549020 0.317647 0.000000
0.560784 0.309804 0.000000
0.572549 0.301961 0.000000
0.584314 0.294118 0.000000
0.592157 0.286275 0.000000
0.603922 0.282353 0.000000
0.615686 0.278431 0.000000
0.627451 0.274510 0.000000
0.639216 0.274510 0.000000
0.647059 0.274510 0.000000
0.658824 0.274510 0.000000
0.000000 0.364706 0.000000
0.000000 0.388235 0.000000
0.000000 0.411765 0.000000
0.000000 0.431373 0.000000
0.031373 0.454902 0.000000
0.070588 0.470588 0.000000
0.113725 0.482353 0.000000
0.156863 0.490196 0.000000
0.200000 0.494118 0.000000
0.243137 0.494118 0.000000
0.286275 0.490196 0.000000
0.321569 0.486275 0.000000
0.360784 0.478431 0.000000
0.392157 0.470588 0.000000
0.423529 0.458824 0.000000
0.450980 0.447059 0.000000
0.474510 0.435294 0.000000
0.498039 0.423529 0.000000
0.517647 0.411765 0.000000
0.533333 0.400000 0.000000
0.549020 0.388235 0.000000
0.560784 0.380392 0.000000
0.572549 0.368627 0.000000
0.588235 0.360784 0.000000
0.600000 0.352941 0.000000
0.611765 0.345098 0.000000
0.623529 0.341176 0.000000
0.635294 0.333333 0.000000
0.647059 0.329412 0.000000
0.658824 0.329412 0.000000
0.670588 0.325490 0.000000
0.682353 0.325490 0.000000
0.694118 0.325490 0.000000
0.000000 0.396078 0.000000
0.000000 0.419608 0.000000
0.000000 0.443137 0.000000
0.003922 0.466667 0.000000
0.039216 0.486275 0.000000
0.078431 0.501961 0.000000
0.121569 0.513726 0.000000
0.164706 0.521569 0.000000
0.207843 0.529412 0.000000
0.247059 0.529412 0.000000
0.290196 0.529412 0.000000
0.329412 0.525490 0.000000
0.364706 0.517647 0.000000
0.396078 0.509804 0.000000
0.427451 0.501961 0.000000
0.458824 0.490196 0.000000
0.482353 0.482353 0.000000
0.505882 0.470588 0.000000
0.529412 0.458824 0.000000
0.545098 0.447059 0.000000
0.560784 0.439216 0.000000
0.576471 0.427451 0.000000
0.592157 0.419608 0.000000
0.607843 0.411765 0.000000
0.623529 0.403922 0.000000
0.635294 0.396078 0.000000
0.647059 0.392157 0.000000
0.658824 0.384314 0.000000
0.670588 0.380392 0.000000
0.682353 0.380392 0.000000
0.694118 0.376471 0.000000
0.705882 0.376471 0.000000
0.717647 0.376471 0.000000
0.000000 0.431373 0.000000
0.000000 0.454902 0.000000
0.000000 0.478431 0.000000
0.011765 0.501961 0.000000
0.050980 0.517647 0.000000
0.090196 0.537255 0.000000
0.129412 0.549020 0.000000
0.172549 0.556863 0.000000
0.211765 0.560784 0.000000
0.254902 0.564706 0.000000
0.294118 0.564706 0.000000
0.333333 0.560784 0.000000
0.368627 0.556863 0.000000
0.403922 0.549020 0.000000
0.435294 0.541176 0.000000
0.462745 0.533333 0.000000
0.490196 0.521569 0.000000
0.513726 0.513726 0.000000
0.537255 0.501961 0.000000
0.556863 0.494118 0.000000
0.572549 0.482353 0.000000
0.592157 0.474510 0.000000
0.607843 0.466667 0.000000
0.623529 0.458824 0.000000
0.639216 0.450980 0.000000
0.650980 0.443137 0.000000
0.666667 0.439216 0.000000
0.678431 0.435294 0.000000
0.690196 0.431373 0.000000
0.701961 0.427451 0.000000
0.713726 0.423529 0.000000
0.725490 0.423529 0.000000
0.733333 0.423529 0.000000
0.000000 0.466667 0.000000
0.000000 0.490196 0.000000
0.000000 0.513726 0.000000
0.023529 0.533333 0.000000
0.058824 0.552941 0.000000
0.098039 0.568627 0.000000
0.137255 0.580392 0.000000
0.180392 0.588235 0.000000
0.219608 0.596078 0.000000
0.262745 0.596078 0.000000
0.301961 0.596078 0.000000
0.337255 0.596078 0.000000
0.372549 0.592157 0.000000
0.407843 0.584314 0.000000
0.439216 0.576471 0.000000
0.470588 0.568627 0.000000
0.498039 0.560784 0.000000
0.521569 0.552941 0.000000
0.545098 0.541176 0.000000
0.564706 0.533333 0.000000
0.584314 0.525490 0.000000
0.603922 0.517647 0.000000
0.619608 0.505882 0.000000
0.635294 0.501961 0.000000
0.650980 0.494118 0.000000
0.666667 0.486275 0.000000
0.678431 0.482353 0.000000
0.690196 0.478431 0.000000
0.705882 0.474510 0.000000
0.713726 0.470588 0.000000
0.725490 0.466667 0.000000
0.737255 0.466667 0.000000
0.745098 0.466667 0.000000
0.000000 0.501961 0.000000
0.000000 0.521569 0.000000
0.003922 0.545098 0.000000
0.035294 0.564706 0.000000
0.070588 0.584314 0.003922
0.109804 0.596078 0.007843
0.149020 0.611765 0.011765
0.188235 0.619608 0.011765
0.227451 0.623529 0.011765
0.266667 0.627451 0.011765
0.305882 0.627451 0.011765
0.345098 0.627451 0.011765
0.380392 0.623529 0.011765
0.415686 0.619608 0.007843
0.447059 0.611765 0.007843
0.474510 0.603922 0.007843
0.501961 0.596078 0.007843
0.529412 0.588235 0.007843
0.552941 0.580392 0.007843
0.572549 0.572549 0.000000
0.592157 0.564706 0.000000
0.611765 0.556863 0.000000
0.627451 0.549020 0.000000
0.647059 0.541176 0.000000
0.662745 0.533333 0.000000
0.674510 0.529412 0.000000
0.690196 0.521569 0.000000
0.701961 0.517647 0.000000
0.713726 0.513726 0.000000
0.725490 0.509804 0.000000
0.737255 0.509804 0.000000
0.749020 0.509804 0.000000
0.756863 0.509804 0.000000
0.000000 0.537255 0.000000
0.000000 0.552941 0.000000
0.019608 0.576471 0.007843
0.050980 0.596078 0.011765
0.086275 0.611765 0.019608
0.125490 0.623529 0.027451
0.160784 0.635294 0.027451
0.200000 0.647059 0.027451
0.239216 0.650980 0.027451
0.278431 0.654902 0.027451
0.313726 0.654902 0.027451
0.352941 0.654902 0.027451
0.388235 0.654902 0.027451
0.419608 0.650980 0.027451
0.454902 0.643137 0.027451
0.482353 0.639216 0.023529
0.509804 0.631373 0.027451
0.537255 0.623529 0.027451
0.560784 0.615686 0.019608
0.584314 0.607843 0.011765
0.603922 0.600000 0.003922
0.623529 0.592157 0.000000
0.639216 0.584314 0.000000
0.654902 0.576471 0.000000
0.670588 0.572549 0.000000
0.686275 0.564706 0.000000
0.698039 0.560784 0.000000
0.713726 0.556863 0.000000
0.725490 0.552941 0.000000
0.737255 0.549020 0.000000
0.749020 0.549020 0.000000
0.756863 0.545098 0.000000
0.768628 0.545098 0.000000
0.000000 0.572549 0.000000
0.000000 0.592157 0.000000
0.023529 0.611765 0.007843
0.054902 0.627451 0.015686
0.090196 0.643137 0.023529
0.129412 0.654902 0.031373
0.172549 0.666667 0.039216
0.211765 0.670588 0.047059
0.250980 0.678431 0.047059
0.286275 0.682353 0.047059
0.325490 0.682353 0.047059
0.360784 0.682353 0.047059
0.396078 0.682353 0.047059
0.431373 0.678431 0.043137
0.462745 0.674510 0.043137
0.490196 0.670588 0.043137
0.517647 0.662745 0.039216
0.545098 0.654902 0.035294
0.568627 0.647059 0.027451
0.592157 0.639216 0.019608
0.611765 0.635294 0.011765
0.627451 0.627451 0.007843
0.647059 0.619608 0.000000
0.662745 0.611765 0.000000
0.678431 0.607843 0.000000
0.694118 0.600000 0.000000
0.709804 0.596078 0.000000
0.721569 0.592157 0.000000
0.733333 0.588235 0.000000
0.745098 0.584314 0.000000
0.756863 0.584314 0.000000
0.768628 0.580392 0.000000
0.776471 0.584314 0.000000
0.000000 0.611765 0.000000
0.000000 0.627451 0.003922
0.023529 0.647059 0.011765
0.058824 0.662745 0.019608
0.094118 0.674510 0.027451
0.133333 0.686275 0.035294
0.176471 0.694118 0.043137
0.215686 0.701961 0.050980
0.254902 0.705882 0.054902
0.294118 0.709804 0.058824
0.333333 0.709804 0.062745
0.368627 0.709804 0.062745
0.403922 0.709804 0.062745
0.439216 0.705882 0.058824
0.470588 0.705882 0.058824
0.498039 0.698039 0.054902
0.525490 0.694118 0.047059
0.552941 0.686275 0.043137
0.576471 0.682353 0.035294
0.596078 0.674510 0.027451
0.619608 0.666667 0.023529
0.639216 0.658824 0.015686
0.654902 0.650980 0.007843
0.674510 0.647059 0.003922
0.690196 0.639216 0.000000
0.701961 0.635294 0.000000
0.717647 0.627451 0.000000
0.733333 0.623529 0.000000
0.745098 0.623529 0.000000
0.756863 0.619608 0.000000
0.764706 0.615686 0.000000
0.776471 0.615686 0.000000
0.784314 0.615686 0.000000
0.000000 0.647059 0.003922
0.000000 0.662745 0.007843
0.027451 0.678431 0.015686
0.062745 0.694118 0.023529
0.098039 0.705882 0.031373
0.137255 0.713726 0.043137
0.180392 0.721569 0.050980
0.219608 0.729412 0.054902
0.258824 0.733333 0.062745
0.301961 0.737255 0.066667
0.337255 0.741176 0.066667
0.376471 0.741176 0.070588
0.411765 0.741176 0.070588
0.443137 0.737255 0.066667
0.474510 0.733333 0.062745
0.501961 0.729412 0.058824
0.533333 0.721569 0.054902
0.556863 0.717647 0.050980
0.580392 0.709804 0.043137
0.603922 0.705882 0.039216
0.623529 0.698039 0.031373
0.643137 0.690196 0.023529
0.662745 0.682353 0.019608
0.678431 0.678431 0.011765
0.698039 0.670588 0.007843
0.709804 0.666667 0.000000
0.725490 0.658824 0.000000
0.741176 0.654902 0.000000
0.752941 0.650980 0.000000
0.764706 0.650980 0.000000
0.772549 0.647059 0.000000
0.784314 0.647059 0.000000
0.792157 0.647059 0.000000
0.000000 0.682353 0.007843
0.003922 0.698039 0.015686
0.031373 0.709804 0.023529
0.066667 0.725490 0.031373
0.101961 0.733333 0.039216
0.145098 0.741176 0.047059
0.184314 0.749020 0.054902
0.227451 0.756863 0.062745
0.266667 0.760784 0.066667
0.305882 0.764706 0.070588
0.345098 0.768628 0.074510
0.380392 0.768628 0.074510
0.415686 0.764706 0.074510
0.447059 0.764706 0.074510
0.478431 0.760784 0.070588
0.509804 0.756863 0.066667
0.537255 0.752941 0.062745
0.564706 0.745098 0.058824
0.588235 0.741176 0.050980
0.611765 0.733333 0.047059
0.631373 0.725490 0.039216
0.650980 0.717647 0.031373
0.670588 0.713726 0.027451
0.686275 0.705882 0.019608
0.701961 0.701961 0.015686
0.717647 0.694118 0.007843
0.733333 0.690196 0.003922
0.745098 0.686275 0.000000
0.760784 0.682353 0.000000
0.768628 0.678431 0.000000
0.780392 0.678431 0.000000
0.792157 0.674510 0.000000
0.800000 0.674510 0.000000
0.000000 0.717647 0.011765
0.007843 0.729412 0.019608
0.039216 0.741176 0.027451
0.074510 0.752941 0.035294
0.109804 0.760784 0.047059
0.149020 0.768628 0.054902
0.192157 0.776471 0.062745
0.231373 0.784314 0.070588
0.270588 0.788235 0.074510
0.309804 0.792157 0.078431
0.349020 0.792157 0.082353
0.384314 0.792157 0.082353
0.419608 0.792157 0.082353
0.454902 0.792157 0.082353
0.486275 0.788235 0.078431
0.517647 0.784314 0.074510
0.545098 0.776471 0.070588
0.572549 0.772549 0.066667
0.596078 0.764706 0.062745
0.619608 0.760784 0.054902
0.639216 0.752941 0.047059
0.658824 0.745098 0.043137
0.678431 0.741176 0.035294
0.694118 0.733333 0.031373
0.709804 0.729412 0.023529
0.725490 0.721569 0.019608
0.741176 0.717647 0.015686
0.752941 0.713726 0.007843
0.764706 0.709804 0.007843
0.776471 0.705882 0.003922
0.788235 0.701961 0.000000
0.796079 0.701961 0.000000
0.803922 0.701961 0.000000
0.000000 0.745098 0.019608
0.015686 0.756863 0.027451
0.047059 0.768628 0.035294
0.078431 0.780392 0.043137
0.117647 0.788235 0.054902
0.156863 0.796079 0.062745
0.196078 0.803922 0.070588
0.239216 0.807843 0.074510
0.278431 0.811765 0.082353
0.317647 0.815686 0.086275
0.356863 0.819608 0.090196
0.392157 0.819608 0.090196
0.427451 0.815686 0.090196
0.462745 0.815686 0.090196
0.494118 0.811765 0.086275
0.521569 0.807843 0.082353
0.549020 0.803922 0.078431
0.576471 0.796079 0.074510
0.600000 0.792157 0.070588
0.623529 0.784314 0.062745
0.647059 0.776471 0.058824
0.666667 0.772549 0.050980
0.682353 0.764706 0.043137
0.701961 0.760784 0.039216
0.717647 0.752941 0.031373
0.733333 0.749020 0.027451
0.745098 0.741176 0.023529
0.760784 0.737255 0.019608
0.772549 0.733333 0.015686
