public/cube/WDR.cube
TITLE "Generated by Resolve"
LUT_3D_SIZE 9
0.000000 0.000000 0.000000
0.098039 0.000000 0.000000
0.321569 0.000000 0.000000
0.525490 0.000000 0.000000
0.713726 0.000000 0.000000
0.894118 0.000000 0.000000
1.000000 0.000000 0.000000
1.000000 0.000000 0.000000
1.000000 0.000000 0.000000
0.000000 0.215686 0.000000
0.105882 0.101961 0.000000
0.364706 0.000000 0.000000
0.556863 0.000000 0.000000
0.749020 0.000000 0.000000
0.929412 0.000000 0.000000
1.000000 0.000000 0.000000
1.000000 0.000000 0.000000
1.000000 0.000000 0.000000
0.000000 0.521569 0.000000
0.015686 0.431373 0.000000
0.325490 0.321569 0.000000
0.541176 0.180392 0.000000
0.768628 0.000000 0.000000
0.964706 0.000000 0.000000
1.000000 0.000000 0.000000
1.000000 0.000000 0.000000
1.000000 0.000000 0.000000
0.000000 0.784314 0.000000
0.000000 0.705882 0.000000
0.270588 0.607843 0.000000
0.509804 0.505882 0.000000
0.713726 0.388235 0.000000
0.898039 0.250980 0.000000
1.000000 0.082353 0.000000
1.000000 0.000000 0.000000
1.000000 0.000000 0.000000
0.000000 1.000000 0.000000
0.000000 0.949020 0.000000
0.200000 0.854902 0.000000
0.466667 0.772549 0.000000
0.686275 0.678431 0.000000
0.874510 0.572549 0.000000
1.000000 0.450980 0.000000
1.000000 0.317647 0.000000
1.000000 0.168627 0.000000
0.000000 1.000000 0.000000
0.000000 1.000000 0.000000
0.090196 1.000000 0.000000
0.400000 0.996078 0.000000
0.639216 0.921569 0.000000
0.843137 0.839216 0.000000
1.000000 0.745098 0.000000
1.000000 0.635294 0.000000
1.000000 0.521569 0.000000
0.000000 1.000000 0.000000
0.000000 1.000000 0.000000
0.000000 1.000000 0.000000
0.274510 1.000000 0.000000
0.537255 1.000000 0.000000
0.764706 1.000000 0.000000
0.960784 0.956863 0.000000
1.000000 0.878431 0.000000
1.000000 0.792157 0.000000
0.000000 1.000000 0.000000
0.000000 1.000000 0.000000
0.000000 1.000000 0.000000
0.094118 1.000000 0.000000
0.400000 1.000000 0.000000
0.647059 1.000000 0.000000
0.862745 1.000000 0.000000
1.000000 1.000000 0.000000
1.000000 0.980392 0.000000
0.000000 1.000000 0.000000
0.000000 1.000000 0.000000
0.000000 1.000000 0.000000
0.000000 1.000000 0.000000
0.329412 1.000000 0.000000
0.572549 1.000000 0.000000
0.772549 1.000000 0.000000
0.964706 1.000000 0.000000
1.000000 1.000000 0.000000
0.000000 0.000000 0.074510
0.000000 0.000000 0.000000
0.262745 0.000000 0.000000
0.478431 0.000000 0.000000
0.674510 0.000000 0.000000
0.858824 0.000000 0.000000
1.000000 0.000000 0.000000
1.000000 0.000000 0.000000
1.000000 0.000000 0.000000
0.000000 0.101961 0.098039
0.121569 0.121569 0.121569
0.356863 0.000000 0.000000
0.541176 0.000000 0.000000
0.729412 0.000000 0.000000
0.909804 0.000000 0.000000
1.000000 0.000000 0.000000
1.000000 0.000000 0.000000
1.000000 0.000000 0.000000
0.000000 0.462745 0.058824
0.000000 0.411765 0.011765
0.329412 0.325490 0.000000
0.537255 0.180392 0.000000
0.760784 0.000000 0.000000
0.964706 0.000000 0.000000
1.000000 0.000000 0.000000
1.000000 0.000000 0.000000
1.000000 0.000000 0.000000
0.000000 0.737255 0.000000
0.000000 0.678431 0.000000
0.262745 0.600000 0.000000
0.509804 0.509804 0.000000
0.709804 0.388235 0.000000
0.890196 0.243137 0.000000
1.000000 0.078431 0.000000
1.000000 0.000000 0.000000
1.000000 0.000000 0.000000
0.000000 0.988235 0.000000
0.000000 0.921569 0.000000
0.184314 0.839216 0.000000
0.462745 0.768628 0.000000
0.682353 0.678431 0.000000
0.870588 0.568627 0.000000
1.000000 0.447059 0.000000
1.000000 0.313726 0.000000
1.000000 0.160784 0.000000
0.000000 1.000000 0.000000
0.000000 1.000000 0.000000
0.062745 1.000000 0.000000
0.388235 0.984314 0.000000
0.627451 0.913726 0.000000
0.835294 0.831373 0.000000
1.000000 0.737255 0.000000
1.000000 0.631373 0.000000
1.000000 0.513726 0.000000
0.000000 1.000000 0.000000
0.000000 1.000000 0.000000
0.000000 1.000000 0.000000
0.254902 1.000000 0.000000
0.521569 1.000000 0.000000
0.749020 1.000000 0.000000
0.949020 0.945098 0.000000
1.000000 0.866667 0.000000
1.000000 0.780392 0.000000
0.000000 1.000000 0.000000
0.000000 1.000000 0.000000
0.000000 1.000000 0.000000
0.070588 1.000000 0.000000
0.384314 1.000000 0.000000
0.631373 1.000000 0.000000
0.847059 1.000000 0.000000
1.000000 1.000000 0.000000
1.000000 0.964706 0.000000
0.000000 1.000000 0.000000
0.000000 1.000000 0.000000
0.000000 1.000000 0.000000
0.000000 1.000000 0.000000
0.313726 1.000000 0.000000
0.556863 1.000000 0.000000
0.760784 1.000000 0.000000
0.949020 1.000000 0.000000
1.000000 1.000000 0.000000
0.000000 0.000000 0.270588
0.000000 0.000000 0.219608
0.129412 0.000000 0.101961
0.388235 0.000000 0.000000
0.603922 0.000000 0.000000
0.803922 0.000000 0.000000
0.984314 0.000000 0.000000
1.000000 0.000000 0.000000
1.000000 0.000000 0.000000
0.000000 0.000000 0.305882
0.000000 0.000000 0.313726
0.258824 0.000000 0.247059
0.482353 0.000000 0.086275
0.682353 0.000000 0.000000
0.870588 0.000000 0.000000
1.000000 0.000000 0.000000
1.000000 0.000000 0.000000
1.000000 0.000000 0.000000
0.000000 0.356863 0.349020
0.000000 0.341176 0.337255
0.337255 0.337255 0.337255
0.517647 0.160784 0.164706
0.741176 0.000000 0.000000
0.945098 0.000000 0.000000
1.000000 0.000000 0.000000
1.000000 0.000000 0.000000
1.000000 0.000000 0.000000
0.000000 0.666667 0.329412
0.000000 0.627451 0.298039
0.243137 0.580392 0.254902
0.509804 0.509804 0.172549
0.698039 0.380392 0.000000
0.874510 0.231373 0.000000
1.000000 0.058824 0.000000
1.000000 0.000000 0.000000
1.000000 0.000000 0.000000
0.000000 0.929412 0.290196
0.000000 0.874510 0.243137
0.145098 0.807843 0.176471
0.450980 0.756863 0.105882
0.674510 0.674510 0.000000
0.862745 0.564706 0.000000
1.000000 0.439216 0.000000
1.000000 0.301961 0.000000
1.000000 0.145098 0.000000
0.000000 1.000000 0.215686
0.000000 1.000000 0.160784
0.011765 1.000000 0.074510
0.364706 0.960784 0.000000
0.615686 0.901961 0.000000
0.827451 0.823529 0.000000
1.000000 0.733333 0.000000
1.000000 0.623529 0.000000
1.000000 0.501961 0.000000
0.000000 1.000000 0.019608
0.000000 1.000000 0.000000
0.000000 1.000000 0.000000
0.231373 1.000000 0.000000
0.505882 1.000000 0.000000
0.737255 1.000000 0.000000
0.937255 0.929412 0.000000
1.000000 0.854902 0.000000
1.000000 0.768628 0.000000
0.000000 1.000000 0.000000
0.000000 1.000000 0.000000
0.000000 1.000000 0.000000
0.035294 1.000000 0.000000
0.360784 1.000000 0.000000
0.615686 1.000000 0.000000
0.835294 1.000000 0.000000
1.000000 1.000000 0.000000
1.000000 0.952941 0.000000
0.000000 1.000000 0.000000
0.000000 1.000000 0.000000
0.000000 1.000000 0.000000
0.000000 1.000000 0.000000
0.286275 1.000000 0.000000
0.537255 1.000000 0.000000
0.749020 1.000000 0.000000
0.933333 1.000000 0.000000
1.000000 1.000000 0.000000
0.000000 0.000000 0.435294
0.000000 0.000000 0.400000
0.000000 0.000000 0.325490
0.262745 0.000000 0.223529
0.505882 0.000000 0.086275
0.721569 0.000000 0.000000
0.917647 0.000000 0.000000
1.000000 0.000000 0.000000
1.000000 0.000000 0.000000
0.000000 0.000000 0.482353
0.000000 0.000000 0.470588
0.062745 0.000000 0.423529
0.372549 0.000000 0.349020
0.603922 0.000000 0.231373
0.803922 0.000000 0.047059
0.992157 0.000000 0.000000
1.000000 0.000000 0.000000
1.000000 0.000000 0.000000
0.000000 0.172549 0.509804
0.000000 0.188235 0.529412
0.152941 0.152941 0.498039
0.454902 0.070588 0.443137
0.709804 0.000000 0.372549
0.898039 0.000000 0.219608
1.000000 0.000000 0.000000
1.000000 0.000000 0.000000
1.000000 0.000000 0.000000
0.000000 0.572549 0.560784
0.000000 0.545098 0.537255
0.152941 0.513726 0.509804
0.525490 0.525490 0.525490
0.686275 0.368627 0.372549
0.850980 0.203922 0.211765
1.000000 0.019608 0.039216
1.000000 0.000000 0.000000
1.000000 0.000000 0.000000
0.000000 0.858824 0.549020
0.000000 0.819608 0.517647
0.074510 0.768628 0.470588
0.439216 0.745098 0.450980
0.682353 0.682353 0.380392
0.854902 0.560784 0.235294
1.000000 0.419608 0.047059
1.000000 0.278431 0.000000
1.000000 0.117647 0.000000
0.000000 1.000000 0.525490
0.000000 1.000000 0.478431
0.000000 0.996078 0.419608
0.333333 0.937255 0.356863
0.600000 0.886275 0.294118
0.815686 0.811765 0.196078
0.992157 0.721569 0.047059
1.000000 0.611765 0.000000
1.000000 0.486275 0.000000
0.000000 1.000000 0.443137
0.000000 1.000000 0.388235
0.000000 1.000000 0.325490
0.184314 1.000000 0.227451
0.474510 1.000000 0.145098
0.713726 0.980392 0.035294
0.917647 0.913726 0.000000
1.000000 0.843137 0.000000
1.000000 0.756863 0.000000
0.000000 1.000000 0.301961
0.000000 1.000000 0.247059
0.000000 1.000000 0.176471
0.000000 1.000000 0.054902
0.329412 1.000000 0.000000
0.592157 1.000000 0.000000
0.815686 1.000000 0.000000
1.000000 1.000000 0.000000
1.000000 0.937255 0.000000
0.000000 1.000000 0.203922
0.000000 1.000000 0.141176
0.000000 1.000000 0.062745
0.000000 1.000000 0.000000
0.250980 1.000000 0.000000
0.513726 1.000000 0.000000
0.733333 1.000000 0.000000
0.921569 1.000000 0.000000
1.000000 1.000000 0.000000
0.000000 0.000000 0.592157
0.000000 0.000000 0.564706
0.000000 0.000000 0.509804
0.094118 0.000000 0.419608
0.384314 0.000000 0.333333
0.619608 0.000000 0.223529
0.831373 0.000000 0.054902
1.000000 0.000000 0.000000
1.000000 0.000000 0.000000
0.000000 0.000000 0.635294
0.000000 0.000000 0.623529
0.000000 0.000000 0.592157
0.215686 0.000000 0.529412
0.490196 0.000000 0.458824
0.717647 0.000000 0.356863
0.913726 0.000000 0.223529
1.000000 0.000000 0.003922
1.000000 0.000000 0.000000
0.000000 0.000000 0.650980
0.000000 0.000000 0.662745
0.000000 0.000000 0.670588
0.349020 0.000000 0.654902
0.619608 0.000000 0.600000
0.819608 0.000000 0.486275
1.000000 0.000000 0.356863
1.000000 0.000000 0.188235
1.000000 0.000000 0.000000
0.000000 0.439216 0.737255
0.000000 0.423529 0.721569
0.000000 0.388235 0.686275
0.360784 0.364706 0.666667
0.623529 0.294118 0.611765
0.811765 0.145098 0.501961
1.000000 0.000000 0.427451
1.000000 0.000000 0.329412
1.000000 0.000000 0.109804
0.000000 0.768628 0.756863
0.000000 0.737255 0.725490
0.000000 0.698039 0.690196
0.360784 0.682353 0.678431
0.694118 0.694118 0.694118
0.843137 0.549020 0.552941
0.988235 0.403922 0.411765
1.000000 0.247059 0.258824
1.000000 0.074510 0.101961
0.000000 1.000000 0.752941
0.000000 1.000000 0.717647
0.000000 0.952941 0.670588
0.286275 0.901961 0.623529
0.584314 0.874510 0.596078
0.811765 0.811765 0.529412
0.984314 0.717647 0.419608
1.000000 0.600000 0.286275
1.000000 0.462745 0.109804
0.000000 1.000000 0.709804
0.000000 1.000000 0.662745
0.000000 1.000000 0.607843
0.137255 1.000000 0.529412
0.447059 1.000000 0.470588
0.698039 0.964706 0.403922
0.901961 0.898039 0.317647
1.000000 0.823529 0.211765
1.000000 0.737255 0.074510
0.000000 1.000000 0.611765
0.000000 1.000000 0.560784
0.000000 1.000000 0.498039
0.000000 1.000000 0.419608
0.290196 1.000000 0.329412
0.564706 1.000000 0.254902
0.792157 1.000000 0.168627
0.988235 0.984314 0.047059
1.000000 0.917647 0.000000
0.000000 1.000000 0.568627
0.000000 1.000000 0.509804
0.000000 1.000000 0.447059
0.000000 1.000000 0.368627
0.200000 1.000000 0.254902
0.478431 1.000000 0.160784
0.705882 1.000000 0.035294
0.905882 1.000000 0.000000
1.000000 1.000000 0.000000
0.000000 0.000000 0.741176
0.000000 0.000000 0.713726
0.000000 0.000000 0.670588
0.000000 0.000000 0.603922
0.231373 0.000000 0.521569
0.501961 0.000000 0.443137
0.729412 0.000000 0.345098
0.933333 0.000000 0.223529
1.000000 0.000000 0.019608
0.000000 0.000000 0.784314
0.000000 0.000000 0.772549
0.000000 0.000000 0.741176
0.000000 0.000000 0.686275
0.345098 0.000000 0.631373
0.607843 0.000000 0.564706
0.827451 0.000000 0.474510
1.000000 0.000000 0.360784
1.000000 0.000000 0.211765
0.000000 0.000000 0.811765
0.000000 0.000000 0.811765
0.000000 0.000000 0.803922
0.125490 0.000000 0.768628
0.458824 0.000000 0.741176
0.713726 0.000000 0.682353
0.925490 0.000000 0.596078
1.000000 0.000000 0.490196
1.000000 0.000000 0.356863
0.000000 0.231373 0.843137
0.000000 0.254902 0.866667
0.000000 0.235294 0.850980
0.180392 0.184314 0.807843
0.498039 0.133333 0.780392
0.760784 0.019608 0.741176
1.000000 0.000000 0.701961
1.000000 0.000000 0.623529
1.000000 0.000000 0.490196
0.000000 0.654902 0.929412
0.000000 0.631373 0.905882
0.000000 0.596078 0.870588
0.207843 0.556863 0.835294
0.545098 0.545098 0.827451
0.784314 0.482353 0.772549
0.952941 0.352941 0.670588
1.000000 0.200000 0.552941
1.000000 0.019608 0.478431
0.000000 0.960784 0.945098
0.000000 0.925490 0.909804
0.000000 0.882353 0.874510
0.184314 0.835294 0.831373
0.529412 0.827451 0.823529
0.811765 0.811765 0.811765
0.976471 0.705882 0.709804
1.000000 0.584314 0.588235
1.000000 0.443137 0.454902
0.000000 1.000000 0.933333
0.000000 1.000000 0.890196
0.000000 1.000000 0.843137
0.054902 1.000000 0.776471
0.407843 0.992157 0.729412
0.678431 0.952941 0.690196
0.894118 0.894118 0.627451
1.000000 0.811765 0.537255
1.000000 0.721569 0.431373
0.000000 1.000000 0.866667
0.000000 1.000000 0.815686
0.000000 1.000000 0.760784
0.000000 1.000000 0.698039
0.250980 1.000000 0.615686
0.541176 1.000000 0.560784
0.776471 1.000000 0.501961
0.976471 0.972549 0.419608
1.000000 0.898039 0.317647
0.000000 1.000000 0.815686
0.000000 1.000000 0.764706
0.000000 1.000000 0.705882
0.000000 1.000000 0.643137
0.137255 1.000000 0.545098
0.443137 1.000000 0.478431
0.690196 1.000000 0.407843
0.894118 1.000000 0.313726
1.000000 1.000000 0.203922
0.000000 0.000000 0.878431
0.000000 0.000000 0.854902
0.000000 0.000000 0.815686
0.000000 0.000000 0.764706
0.039216 0.000000 0.686275
0.360784 0.000000 0.623529
0.615686 0.000000 0.549020
0.839216 0.000000 0.462745
1.000000 0.000000 0.352941
0.000000 0.000000 0.917647
0.000000 0.000000 0.905882
0.000000 0.000000 0.882353
0.000000 0.000000 0.839216
0.172549 0.000000 0.780392
0.470588 0.000000 0.729412
0.717647 0.000000 0.662745
0.933333 0.000000 0.584314
1.000000 0.000000 0.482353
0.000000 0.000000 0.949020
0.000000 0.000000 0.949020
0.000000 0.000000 0.937255
0.000000 0.000000 0.909804
0.286275 0.000000 0.874510
0.580392 0.000000 0.839216
0.819608 0.000000 0.780392
1.000000 0.000000 0.701961
1.000000 0.000000 0.607843
0.000000 0.000000 0.956863
0.000000 0.000000 0.960784
0.000000 0.000000 0.980392
0.000000 0.000000 0.972549
0.392157 0.000000 0.968628
0.698039 0.000000 0.952941
0.941177 0.000000 0.913726
1.000000 0.000000 0.835294
1.000000 0.000000 0.725490
0.000000 0.513726 1.000000
0.000000 0.498039 1.000000
0.000000 0.466667 1.000000
0.000000 0.419608 0.976471
0.384314 0.388235 0.952941
0.666667 0.341176 0.921569
0.878431 0.250980 0.862745
1.000000 0.117647 0.792157
1.000000 0.000000 0.760784
0.000000 0.862745 1.000000
0.000000 0.827451 1.000000
0.000000 0.788235 1.000000
0.000000 0.741176 0.992157
0.407843 0.725490 0.976471
0.709804 0.709804 0.968628
0.929412 0.650980 0.917647
1.000000 0.541176 0.827451
1.000000 0.400000 0.713726
0.000000 1.000000 1.000000
0.000000 1.000000 1.000000
0.000000 1.000000 1.000000
0.000000 0.992157 0.984314
0.337255 0.941177 0.937255
0.635294 0.913726 0.913726
0.890196 0.890196 0.890196
1.000000 0.800000 0.803922
1.000000 0.705882 0.709804
0.000000 1.000000 1.000000
0.000000 1.000000 1.000000
0.000000 1.000000 0.984314
0.000000 1.000000 0.929412
0.192157 1.000000 0.850980
0.501961 1.000000 0.807843
0.764706 1.000000 0.772549
0.972549 0.968628 0.709804
1.000000 0.890196 0.623529
0.000000 1.000000 1.000000
0.000000 1.000000 0.976471
0.000000 1.000000 0.925490
0.000000 1.000000 0.870588
0.039216 1.000000 0.788235
0.396078 1.000000 0.729412
0.666667 1.000000 0.686275
0.890196 1.000000 0.627451
1.000000 1.000000 0.537255
0.000000 0.000000 1.000000
0.000000 0.000000 0.988235
0.000000 0.000000 0.952941
0.000000 0.000000 0.909804
0.000000 0.000000 0.850980
0.200000 0.000000 0.780392
0.482353 0.000000 0.721569
0.725490 0.000000 0.650980
0.941177 0.000000 0.572549
0.000000 0.000000 1.000000
0.000000 0.000000 1.000000
0.000000 0.000000 1.000000
0.000000 0.000000 0.976471
0.000000 0.000000 0.925490
0.313726 0.000000 0.874510
0.588235 0.000000 0.827451
0.827451 0.000000 0.764706
1.000000 0.000000 0.690196
0.000000 0.000000 1.000000
0.000000 0.000000 1.000000
0.000000 0.000000 1.000000
0.000000 0.000000 1.000000
0.074510 0.000000 1.000000
0.423529 0.000000 0.968628
0.694118 0.000000 0.933333
0.925490 0.000000 0.878431
1.000000 0.000000 0.811765
0.000000 0.000000 1.000000
0.000000 0.000000 1.000000
0.000000 0.000000 1.000000
0.000000 0.000000 1.000000
0.188235 0.000000 1.000000
0.533333 0.000000 1.000000
0.800000 0.000000 1.000000
1.000000 0.000000 0.988235
1.000000 0.000000 0.925490
0.000000 0.290196 1.000000
0.000000 0.321569 1.000000
0.000000 0.309804 1.000000
0.000000 0.270588 1.000000
0.211765 0.215686 1.000000
0.529412 0.176471 1.000000
0.792157 0.098039 1.000000
1.000000 0.000000 1.000000
1.000000 0.000000 1.000000
0.000000 0.741176 1.000000
0.000000 0.713726 1.000000
0.000000 0.678431 1.000000
0.000000 0.631373 1.000000
0.243137 0.592157 1.000000
0.568627 0.572549 1.000000
0.823529 0.529412 1.000000
1.000000 0.447059 1.000000
1.000000 0.329412 0.925490
0.000000 1.000000 1.000000
0.000000 1.000000 1.000000
0.000000 0.972549 1.000000
0.000000 0.921569 1.000000
0.231373 0.870588 1.000000
0.552941 0.847059 1.000000
0.815686 0.815686 1.000000
1.000000 0.760784 1.000000
1.000000 0.670588 0.941177
0.000000 1.000000 1.000000
0.000000 1.000000 1.000000
0.000000 1.000000 1.000000
0.000000 1.000000 1.000000
0.105882 1.000000 1.000000
0.439216 1.000000 1.000000
0.717647 0.988235 0.984314
0.968628 0.968628 0.968628
1.000000 0.878431 0.878431
0.000000 1.000000 1.000000
0.000000 1.000000 1.000000
0.000000 1.000000 1.000000
0.000000 1.000000 1.000000
0.000000 1.000000 0.996078
0.317647 1.000000 0.933333
0.619608 1.000000 0.909804
0.878431 1.000000 0.886275
1.000000 1.000000 0.827451
0.000000 0.000000 1.000000
0.000000 0.000000 1.000000
0.000000 0.000000 1.000000
0.000000 0.000000 1.000000
0.000000 0.000000 0.992157
0.000000 0.000000 0.929412
0.333333 0.000000 0.870588
0.600000 0.000000 0.815686
0.835294 0.000000 0.752941
0.000000 0.000000 1.000000
0.000000 0.000000 1.000000
0.000000 0.000000 1.000000
0.000000 0.000000 1.000000
0.000000 0.000000 1.000000
0.125490 0.000000 1.000000
0.443137 0.000000 0.964706
0.701961 0.000000 0.921569
0.929412 0.000000 0.862745
0.000000 0.000000 1.000000
0.000000 0.000000 1.000000
0.000000 0.000000 1.000000
0.000000 0.000000 1.000000
0.000000 0.000000 1.000000
0.247059 0.000000 1.000000
0.549020 0.000000 1.000000
0.807843 0.000000 1.000000
1.000000 0.000000 0.976471
0.000000 0.000000 1.000000
0.000000 0.000000 1.000000
0.000000 0.000000 1.000000
0.000000 0.000000 1.000000
0.000000 0.000000 1.000000
0.349020 0.000000 1.000000
0.650980 0.000000 1.000000
0.909804 0.000000 1.000000
1.000000 0.000000 1.000000
0.000000 0.043137 1.000000
0.000000 0.054902 1.000000
0.000000 0.070588 1.000000
0.000000 0.070588 1.000000
0.011765 0.019608 1.000000
0.423529 0.000000 1.000000
0.733333 0.000000 1.000000
1.000000 0.000000 1.000000
1.000000 0.000000 1.000000
0.000000 0.588235 1.000000
0.000000 0.580392 1.000000
0.000000 0.549020 1.000000
0.000000 0.505882 1.000000
0.039216 0.450980 1.000000
0.411765 0.419608 1.000000
0.694118 0.380392 1.000000
0.925490 0.317647 1.000000
1.000000 0.219608 1.000000
0.000000 0.949020 1.000000
0.000000 0.913726 1.000000
0.000000 0.874510 1.000000
0.000000 0.827451 1.000000
0.062745 0.772549 1.000000
0.439216 0.749020 1.000000
0.721569 0.725490 1.000000
0.952941 0.678431 1.000000
1.000000 0.607843 1.000000
0.000000 1.000000 1.000000
0.000000 1.000000 1.000000
0.000000 1.000000 1.000000
0.000000 1.000000 1.000000
0.000000 1.000000 1.000000
0.360784 0.960784 1.000000
0.643137 0.925490 1.000000
0.890196 0.894118 1.000000
1.000000 0.839216 1.000000
0.000000 1.000000 1.000000
0.000000 1.000000 1.000000
0.000000 1.000000 1.000000
0.000000 1.000000 1.000000
0.000000 1.000000 1.000000
0.227451 1.000000 1.000000
0.537255 1.000000 1.000000
0.819608 1.000000 1.000000
1.000000 1.000000 1.000000
