public/cube/WDR.cube
TITLE "Generated by Resolve"
LUT_3D_SIZE 5
0.000000 0.000000 0.000000
0.321569 0.000000 0.000000
0.713726 0.000000 0.000000
1.000000 0.000000 0.000000
1.000000 0.000000 0.000000
0.000000 0.521569 0.000000
0.325490 0.321569 0.000000
0.768628 0.000000 0.000000
1.000000 0.000000 0.000000
1.000000 0.000000 0.000000
0.000000 1.000000 0.000000
0.200000 0.854902 0.000000
0.686275 0.678431 0.000000
1.000000 0.450980 0.000000
1.000000 0.168627 0.000000
0.000000 1.000000 0.000000
0.000000 1.000000 0.000000
0.537255 1.000000 0.000000
0.960784 0.956863 0.000000
1.000000 0.792157 0.000000
0.000000 1.000000 0.000000
0.000000 1.000000 0.000000
0.329412 1.000000 0.000000
0.772549 1.000000 0.000000
1.000000 1.000000 0.000000
0.000000 0.000000 0.270588
0.129412 0.000000 0.101961
0.603922 0.000000 0.000000
0.984314 0.000000 0.000000
1.000000 0.000000 0.000000
0.000000 0.356863 0.349020
0.337255 0.337255 0.337255
0.741176 0.000000 0.000000
1.000000 0.000000 0.000000
1.000000 0.000000 0.000000
0.000000 0.929412 0.290196
0.145098 0.807843 0.176471
0.674510 0.674510 0.000000
1.000000 0.439216 0.000000
1.000000 0.145098 0.000000
0.000000 1.000000 0.019608
0.000000 1.000000 0.000000
0.505882 1.000000 0.000000
0.937255 0.929412 0.000000
1.000000 0.768628 0.000000
0.000000 1.000000 0.000000
0.000000 1.000000 0.000000
0.286275 1.000000 0.000000
0.749020 1.000000 0.000000
1.000000 1.000000 0.000000
0.000000 0.000000 0.592157
0.000000 0.000000 0.509804
0.384314 0.000000 0.333333
0.831373 0.000000 0.054902
1.000000 0.000000 0.000000
0.000000 0.000000 0.650980
0.000000 0.000000 0.670588
0.619608 0.000000 0.600000
1.000000 0.000000 0.356863
1.000000 0.000000 0.000000
0.000000 0.768628 0.756863
0.000000 0.698039 0.690196
0.694118 0.694118 0.694118
0.988235 0.403922 0.411765
1.000000 0.074510 0.101961
0.000000 1.000000 0.709804
0.000000 1.000000 0.607843
0.447059 1.000000 0.470588
0.901961 0.898039 0.317647
1.000000 0.737255 0.074510
0.000000 1.000000 0.568627
0.000000 1.000000 0.447059
0.200000 1.000000 0.254902
0.705882 1.000000 0.035294
1.000000 1.000000 0.000000
0.000000 0.000000 0.878431
0.000000 0.000000 0.815686
0.039216 0.000000 0.686275
0.615686 0.000000 0.549020
1.000000 0.000000 0.352941
0.000000 0.000000 0.949020
0.000000 0.000000 0.937255
0.286275 0.000000 0.874510
0.819608 0.000000 0.780392
1.000000 0.000000 0.607843
0.000000 0.513726 1.000000
0.000000 0.466667 1.000000
0.384314 0.388235 0.952941
0.878431 0.250980 0.862745
1.000000 0.000000 0.760784
0.000000 1.000000 1.000000
0.000000 1.000000 1.000000
0.337255 0.941177 0.937255
0.890196 0.890196 0.890196
1.000000 0.705882 0.709804
0.000000 1.000000 1.000000
0.000000 1.000000 0.925490
0.039216 1.000000 0.788235
0.666667 1.000000 0.686275
1.000000 1.000000 0.537255
0.000000 0.000000 1.000000
0.000000 0.000000 1.000000
0.000000 0.000000 0.992157
0.333333 0.000000 0.870588
0.835294 0.000000 0.752941
0.000000 0.000000 1.000000
0.000000 0.000000 1.000000
0.000000 0.000000 1.000000
0.549020 0.000000 1.000000
1.000000 0.000000 0.976471
0.000000 0.043137 1.000000
0.000000 0.070588 1.000000
0.011765 0.019608 1.000000
0.733333 0.000000 1.000000
1.000000 0.000000 1.000000
0.000000 0.949020 1.000000
0.000000 0.874510 1.000000
0.062745 0.772549 1.000000
0.721569 0.725490 1.000000
1.000000 0.607843 1.000000
0.000000 1.000000 1.000000
0.000000 1.000000 1.000000
0.000000 1.000000 1.000000
0.537255 1.000000 1.000000
1.000000 1.000000 1.000000
